; generated by PrusaSlicer 2.6.1+win64 on 2023-09-14 at 10:27:55 UTC


;
;
; 

; external perimeters extrusion width = 0.45mm
; perimeters extrusion width = 0.45mm
; infill extrusion width = 0.45mm
; solid infill extrusion width = 0.45mm
; top infill extrusion width = 0.40mm
; first layer extrusion width = 0.42mm

M73 P0 R16
M73 Q0 S16
M201 X1000 Y1000 Z200 E5000 ; sets maximum accelerations, mm/sec^2
M203 X200 Y200 Z12 E120 ; sets maximum feedrates, mm / sec
M204 S1250 T1250 ; sets acceleration (S) and retract acceleration (R), mm/sec^2
M205 X8.00 Y8.00 Z0.40 E4.50 ; sets the jerk limits, mm/sec
M205 S0 T0 ; sets the minimum extruding and travel feed rate, mm/sec
;TYPE:Custom
M862.3 P "MK3S" ; printer model check
M862.1 P0.4 ; nozzle diameter check
M115 U3.13.0 ; tell printer latest fw version
G90 ; use absolute coordinates
M83 ; extruder relative mode
M104 S215 ; set extruder temp
M140 S60 ; set bed temp
M190 S60 ; wait for bed temp
M109 S215 ; wait for extruder temp
G28 W ; home all without mesh bed level
G80 ; mesh bed leveling

G1 Z0.2 F720
G1 Y-3 F1000 ; go outside print area
G92 E0
G1 X60 E9 F1000 ; intro line
G1 X100 E12.5 F1000 ; intro line

G92 E0
M221 S95

; Don't change E values below. Excessive value can damage the printer.
M907 E430 ; set extruder motor current
G21 ; set units to millimeters
G90 ; use absolute coordinates
M83 ; use relative distances for extrusion
M900 K0.05 ; Filament gcode LA 1.5
M900 K30 ; Filament gcode LA 1.0
M107
;LAYER_CHANGE
;Z:0.2
;HEIGHT:0.2
;BEFORE_LAYER_CHANGE
G92 E0.0
;0.2


G1 E-.8 F2100
G1 Z.4 F720
;AFTER_LAYER_CHANGE
;0.2
G1 X114.993 Y97.305 F10800
G1 Z.2 F720
G1 E.8 F2100
M204 S800
;TYPE:Skirt/Brim
;WIDTH:0.42
G1 F1200
G1 X116.121 Y96.102 E.05171
G1 X117.511 Y94.827 E.05914
G1 X118.337 Y94.313 E.0305
G1 X122.451 Y92.676 E.13883
G1 X123.365 Y92.483 E.02929
G1 X125.073 Y92.43 E.05358
G1 X126.898 Y92.511 E.05728
G1 X127.846 Y92.732 E.03052
G1 X131.912 Y94.483 E.13881
G1 X132.695 Y94.993 E.0293
G1 X133.898 Y96.121 E.05171
G1 X135.173 Y97.511 E.05914
G1 X135.687 Y98.337 E.0305
G1 X137.324 Y102.451 E.13883
G1 X137.517 Y103.365 E.02929
G1 X137.571 Y105.013 E.0517
G1 X137.489 Y106.898 E.05916
G1 X137.268 Y107.846 E.03052
G1 X135.517 Y111.912 E.13881
G1 X135.007 Y112.695 E.0293
G1 X133.879 Y113.898 E.05171
G1 X132.489 Y115.173 E.05914
G1 X131.663 Y115.687 E.0305
G1 X127.549 Y117.324 E.13883
G1 X126.635 Y117.517 E.02929
M73 Q1 S16
G1 X124.987 Y117.571 E.0517
G1 X123.102 Y117.489 E.05916
G1 X122.154 Y117.268 E.03052
M73 P1 R16
G1 X118.088 Y115.517 E.13881
G1 X117.305 Y115.007 E.0293
G1 X116.102 Y113.879 E.05171
G1 X114.827 Y112.489 E.05914
G1 X114.313 Y111.663 E.0305
G1 X112.676 Y107.549 E.13883
G1 X112.483 Y106.635 E.02929
G1 X112.429 Y104.987 E.0517
G1 X112.511 Y103.102 E.05916
G1 X112.732 Y102.154 E.03052
G1 X114.483 Y98.088 E.13881
G1 X114.96 Y97.355 E.02742
M204 S1000
G1 X115.269 Y97.561 F10800
M204 S800
G1 F1200
G1 X116.386 Y96.37 E.0512
G1 X117.764 Y95.107 E.05861
G1 X118.477 Y94.664 E.02632
G1 X122.591 Y93.026 E.13884
G1 X123.38 Y92.86 E.02528
G1 X125.072 Y92.807 E.05308
G1 X126.879 Y92.888 E.05671
M73 P1 R15
G1 X127.696 Y93.078 E.0263
G1 X131.763 Y94.83 E.13885
G1 X132.439 Y95.27 E.02529
G1 X133.63 Y96.386 E.05118
G1 X134.893 Y97.764 E.05861
G1 X135.336 Y98.477 E.02632
G1 X136.974 Y102.591 E.13884
G1 X137.14 Y103.38 E.02528
G1 X137.194 Y105.011 E.05117
G1 X137.112 Y106.879 E.05863
G1 X136.922 Y107.696 E.0263
G1 X135.17 Y111.763 E.13885
G1 X134.73 Y112.439 E.02529
G1 X133.614 Y113.63 E.05118
G1 X132.236 Y114.893 E.05861
G1 X131.523 Y115.336 E.02632
G1 X127.409 Y116.974 E.13884
G1 X126.62 Y117.14 E.02528
G1 X124.989 Y117.194 E.05117
G1 X123.121 Y117.112 E.05863
G1 X122.304 Y116.922 E.0263
M73 Q1 S15
G1 X118.237 Y115.17 E.13885
G1 X117.561 Y114.73 E.02529
G1 X116.37 Y113.614 E.05118
G1 X115.107 Y112.236 E.05861
G1 X114.664 Y111.523 E.02632
G1 X113.026 Y107.409 E.13884
G1 X112.86 Y106.62 E.02528
G1 X112.806 Y104.989 E.05117
G1 X112.888 Y103.121 E.05863
G1 X113.078 Y102.304 E.0263
G1 X114.83 Y98.237 E.13885
G1 X115.237 Y97.612 E.02339
M204 S1000
;WIPE_START
G1 F8640
G1 X116.386 Y96.37 E-.39068
G1 X117.693 Y95.172 E-.40932
;WIPE_END
G1 Z.6 F720
G1 X117.622 Y99.01 F10800
G1 Z.2 F720
G1 E.8 F2100
M204 S800
G1 F1200
G1 X117.664 Y98.938 E.00261
G1 X118.295 Y98.228 E.02978
G1 X119.11 Y97.521 E.03383
G1 X120.084 Y96.991 E.03477
G1 X121.157 Y96.698 E.03487
G1 X121.698 Y96.68 E.01697
G1 X122.156 Y96.283 E.019
G1 X123.328 Y95.71 E.0409
G1 X124.233 Y95.508 E.02907
G1 X125.134 Y95.471 E.02827
G1 X126.006 Y95.529 E.0274
G1 X127.06 Y95.81 E.0342
G1 X128.111 Y96.381 E.0375
G1 X128.533 Y96.771 E.01802
G1 X129.065 Y96.809 E.01672
G1 X130.211 Y97.165 E.03763
G1 X131.032 Y97.642 E.02977
G1 X131.762 Y98.285 E.0305
G1 X132.484 Y99.118 E.03456
G1 X133.003 Y100.069 E.03397
G1 X133.29 Y101.072 E.03271
G1 X133.313 Y101.676 E.01895
G1 X133.667 Y102.082 E.01689
G1 X134.225 Y103.145 E.03764
G1 X134.468 Y104.063 E.02977
G1 X134.53 Y105.034 E.03051
G1 X134.451 Y106.133 E.03455
G1 X134.146 Y107.172 E.03395
G1 X133.64 Y108.085 E.03273
G1 X133.229 Y108.528 E.01895
G1 X133.191 Y109.065 E.01688
G1 X132.835 Y110.21 E.0376
G1 X132.359 Y111.03 E.02973
G1 X131.732 Y111.746 E.02984
G1 X130.883 Y112.483 E.03525
G1 X129.931 Y113.003 E.03401
G1 X128.928 Y113.29 E.03271
G1 X128.324 Y113.313 E.01895
G1 X127.918 Y113.667 E.01689
G1 X126.855 Y114.225 E.03764
G1 X125.937 Y114.468 E.02977
G1 X124.966 Y114.53 E.03051
G1 X123.867 Y114.451 E.03455
G1 X122.828 Y114.146 E.03395
G1 X121.915 Y113.64 E.03273
G1 X121.472 Y113.229 E.01895
G1 X120.935 Y113.191 E.01688
G1 X119.79 Y112.835 E.0376
G1 X118.97 Y112.359 E.02973
G1 X118.254 Y111.732 E.02984
G1 X117.517 Y110.883 E.03525
G1 X116.997 Y109.931 E.03401
G1 X116.71 Y108.928 E.03271
G1 X116.687 Y108.324 E.01895
G1 X116.333 Y107.918 E.01689
G1 X115.775 Y106.855 E.03764
G1 X115.532 Y105.937 E.02977
G1 X115.47 Y104.966 E.03051
G1 X115.549 Y103.867 E.03455
G1 X115.854 Y102.828 E.03395
G1 X116.36 Y101.915 E.03273
G1 X116.771 Y101.472 E.01895
G1 X116.809 Y100.935 E.01688
G1 X117.165 Y99.789 E.03763
G1 X117.592 Y99.062 E.02644
M204 S1000
G1 X117.915 Y99.249 F10800
M204 S800
G1 F1200
G1 X117.959 Y99.173 E.00275
G1 X118.553 Y98.503 E.02807
G1 X119.31 Y97.841 E.03153
G1 X120.206 Y97.349 E.03205
G1 X121.233 Y97.068 E.03338
G1 X121.846 Y97.055 E.01922
G1 X122.347 Y96.609 E.02103
G1 X123.434 Y96.072 E.03801
G1 X124.266 Y95.884 E.02674
G1 X125.12 Y95.848 E.0268
G1 X125.93 Y95.899 E.02545
G1 X126.901 Y96.152 E.03146
G1 X127.908 Y96.7 E.03595
G1 X128.373 Y97.14 E.02007
G1 X128.977 Y97.176 E.01897
G1 X130.041 Y97.503 E.0349
G1 X130.826 Y97.959 E.02846
M73 Q2 S15
G1 X131.486 Y98.542 E.02761
G1 X132.164 Y99.318 E.03231
G1 X132.646 Y100.193 E.03132
G1 X132.921 Y101.152 E.03128
G1 X132.94 Y101.824 E.02108
G1 X133.345 Y102.28 E.01912
G1 X133.866 Y103.263 E.03488
M73 P2 R15
G1 X134.099 Y104.141 E.02848
G1 X134.153 Y105.021 E.02764
G1 X134.083 Y106.048 E.03228
G1 X133.805 Y107.008 E.03134
G1 X133.322 Y107.88 E.03125
G1 X132.86 Y108.368 E.02107
G1 X132.824 Y108.977 E.01913
G1 X132.497 Y110.041 E.0349
G1 X132.063 Y110.796 E.0273
G1 X131.473 Y111.471 E.02811
G1 X130.683 Y112.163 E.03293
G1 X129.807 Y112.646 E.03136
G1 X128.848 Y112.921 E.03128
G1 X128.176 Y112.94 E.02108
G1 X127.72 Y113.345 E.01912
G1 X126.737 Y113.866 E.03488
G1 X125.859 Y114.099 E.02848
G1 X124.979 Y114.153 E.02764
G1 X123.952 Y114.083 E.03228
G1 X122.992 Y113.805 E.03134
G1 X122.12 Y113.322 E.03125
G1 X121.632 Y112.86 E.02107
G1 X121.023 Y112.824 E.01913
G1 X119.959 Y112.497 E.0349
G1 X119.204 Y112.063 E.0273
G1 X118.529 Y111.473 E.02811
G1 X117.837 Y110.683 E.03293
G1 X117.354 Y109.807 E.03136
G1 X117.079 Y108.848 E.03128
G1 X117.06 Y108.176 E.02108
G1 X116.655 Y107.72 E.01912
G1 X116.134 Y106.737 E.03488
G1 X115.901 Y105.859 E.02848
G1 X115.847 Y104.979 E.02764
G1 X115.917 Y103.952 E.03228
G1 X116.195 Y102.992 E.03134
G1 X116.678 Y102.12 E.03125
G1 X117.14 Y101.632 E.02107
G1 X117.176 Y101.023 E.01913
G1 X117.503 Y99.959 E.0349
G1 X117.885 Y99.301 E.02386
M204 S1000
G1 X118.209 Y99.488 F10800
M204 S800
G1 F1200
G1 X118.255 Y99.408 E.00289
G1 X118.811 Y98.778 E.02635
G1 X119.512 Y98.161 E.02928
G1 X120.328 Y97.707 E.02928
G1 X121.308 Y97.438 E.03186
G1 X121.993 Y97.431 E.02148
G1 X122.54 Y96.934 E.02317
G1 X123.541 Y96.434 E.03508
G1 X124.3 Y96.26 E.02442
G1 X125.108 Y96.225 E.02536
G1 X125.855 Y96.269 E.02346
G1 X126.742 Y96.495 E.0287
G1 X127.705 Y97.018 E.03436
G1 X128.212 Y97.511 E.02217
G1 X128.892 Y97.544 E.02135
G1 X129.872 Y97.84 E.0321
G1 X130.592 Y98.255 E.02606
G1 X131.212 Y98.801 E.0259
G1 X131.845 Y99.52 E.03004
G1 X132.29 Y100.319 E.02868
G1 X132.552 Y101.231 E.02975
G1 X132.564 Y101.972 E.02324
G1 X133.024 Y102.48 E.02149
G1 X133.508 Y103.382 E.0321
G1 X133.723 Y104.184 E.02603
G1 X133.776 Y105.009 E.02592
G1 X133.715 Y105.965 E.03004
G1 X133.465 Y106.845 E.02868
G1 X133.005 Y107.675 E.02975
G1 X132.49 Y108.208 E.02324
G1 X132.456 Y108.892 E.02147
G1 X132.16 Y109.872 E.0321
G1 X131.745 Y110.591 E.02603
G1 X131.215 Y111.196 E.02522
G1 X130.481 Y111.844 E.0307
G1 X129.681 Y112.29 E.02872
G1 X128.769 Y112.552 E.02975
G1 X128.028 Y112.564 E.02324
G1 X127.52 Y113.024 E.02149
G1 X126.618 Y113.508 E.0321
G1 X125.816 Y113.723 E.02603
G1 X124.991 Y113.776 E.02592
G1 X124.035 Y113.715 E.03004
G1 X123.155 Y113.465 E.02868
G1 X122.325 Y113.005 E.02975
G1 X121.792 Y112.49 E.02324
G1 X121.108 Y112.456 E.02147
G1 X120.128 Y112.16 E.0321
G1 X119.409 Y111.745 E.02603
G1 X118.804 Y111.215 E.02522
G1 X118.156 Y110.481 E.0307
G1 X117.71 Y109.681 E.02872
G1 X117.448 Y108.769 E.02975
G1 X117.436 Y108.028 E.02324
G1 X116.976 Y107.52 E.02149
G1 X116.492 Y106.618 E.0321
G1 X116.277 Y105.816 E.02603
G1 X116.224 Y104.991 E.02592
G1 X116.285 Y104.035 E.03004
G1 X116.535 Y103.155 E.02868
G1 X116.995 Y102.325 E.02975
G1 X117.51 Y101.792 E.02324
G1 X117.544 Y101.108 E.02147
G1 X117.84 Y100.128 E.0321
G1 X118.179 Y99.54 E.02128
M204 S1000
G1 X118.506 Y99.728 F10800
M204 S800
G1 F1200
G1 X118.572 Y99.613 E.00416
G1 X119.07 Y99.052 E.02352
G1 X119.714 Y98.48 E.02701
G1 X120.49 Y98.048 E.02785
G1 X121.38 Y97.809 E.02889
G1 X122.142 Y97.809 E.02389
G1 X122.735 Y97.258 E.02538
G1 X123.648 Y96.797 E.03207
G1 X124.367 Y96.631 E.02314
G1 X125.096 Y96.602 E.02288
G1 X125.782 Y96.639 E.02154
G1 X126.583 Y96.838 E.02588
G1 X127.5 Y97.336 E.03272
G1 X128.05 Y97.882 E.0243
G1 X128.808 Y97.912 E.02379
G1 X129.704 Y98.178 E.02931
G1 X130.387 Y98.572 E.02472
G1 X130.937 Y99.06 E.02305
G1 X131.527 Y99.723 E.02783
G1 X131.934 Y100.444 E.02596
G1 X132.182 Y101.31 E.02824
G1 X132.188 Y102.121 E.02543
G1 X132.704 Y102.681 E.02388
G1 X133.149 Y103.502 E.02928
G1 X133.354 Y104.264 E.02474
G1 X133.399 Y104.998 E.02306
G1 X133.346 Y105.884 E.02783
G1 X133.124 Y106.682 E.02597
G1 X132.688 Y107.469 E.02821
G1 X132.118 Y108.047 E.02545
G1 X132.088 Y108.808 E.02388
G1 X131.822 Y109.703 E.02928
G1 X131.428 Y110.387 E.02475
G1 X130.955 Y110.922 E.02239
G1 X130.277 Y111.527 E.02849
G1 X129.556 Y111.934 E.02596
G1 X128.69 Y112.182 E.02824
G1 X127.879 Y112.188 E.02543
G1 X127.319 Y112.704 E.02388
G1 X126.498 Y113.149 E.02928
G1 X125.737 Y113.354 E.02471
G1 X125.002 Y113.399 E.02309
G1 X124.116 Y113.346 E.02783
G1 X123.318 Y113.124 E.02597
G1 X122.531 Y112.688 E.02821
G1 X121.953 Y112.118 E.02545
G1 X121.192 Y112.088 E.02388
G1 X120.297 Y111.822 E.02928
G1 X119.613 Y111.428 E.02475
G1 X119.078 Y110.955 E.02239
G1 X118.473 Y110.277 E.02849
G1 X118.066 Y109.556 E.02596
G1 X117.818 Y108.69 E.02824
G1 X117.812 Y107.879 E.02543
G1 X117.296 Y107.319 E.02388
G1 X116.851 Y106.498 E.02928
G1 X116.646 Y105.736 E.02474
G1 X116.601 Y105.002 E.02306
G1 X116.654 Y104.116 E.02783
G1 X116.876 Y103.318 E.02597
G1 X117.312 Y102.531 E.02821
G1 X117.882 Y101.953 E.02545
G1 X117.912 Y101.192 E.02388
G1 X118.178 Y100.297 E.02928
G1 X118.476 Y99.78 E.01871
M204 S1000
G1 X118.8 Y99.97 F10800
M204 S800
G1 F1200
G1 X118.887 Y99.821 E.00541
G1 X119.33 Y99.326 E.02083
G1 X119.918 Y98.797 E.0248
G1 X120.612 Y98.405 E.02499
G1 X121.452 Y98.18 E.02727
G1 X122.291 Y98.189 E.02631
G1 X122.932 Y97.581 E.0277
G1 X123.756 Y97.159 E.02903
G1 X124.434 Y97.003 E.02181
G1 X125.086 Y96.979 E.02046
G1 X125.712 Y97.01 E.01965
G1 X126.426 Y97.182 E.02303
G1 X127.295 Y97.654 E.03101
G1 X127.887 Y98.255 E.02645
G1 X128.725 Y98.281 E.02629
G1 X129.574 Y98.533 E.02777
G1 X130.179 Y98.887 E.02198
G1 X130.663 Y99.318 E.02032
G1 X131.232 Y99.959 E.02687
G1 X131.577 Y100.57 E.022
G1 X131.812 Y101.387 E.02666
G1 X131.809 Y102.27 E.02769
G1 X132.385 Y102.883 E.02637
G1 X132.807 Y103.661 E.02775
G1 X132.985 Y104.34 E.02201
G1 X133.022 Y104.987 E.02032
G1 X132.971 Y105.842 E.02686
G1 X132.783 Y106.518 E.022
G1 X132.371 Y107.262 E.02667
G1 X131.745 Y107.885 E.02769
G1 X131.719 Y108.725 E.02635
G1 X131.467 Y109.574 E.02777
G1 X131.113 Y110.179 E.02198
G1 X130.696 Y110.648 E.01968
G1 X130.041 Y111.232 E.02751
G1 X129.43 Y111.577 E.022
G1 X128.613 Y111.812 E.02666
G1 X127.73 Y111.809 E.02769
G1 X127.117 Y112.385 E.02637
G1 X126.339 Y112.807 E.02775
G1 X125.66 Y112.985 E.02201
G1 X125.013 Y113.022 E.02032
G1 X124.158 Y112.971 E.02686
G1 X123.482 Y112.783 E.022
G1 X122.738 Y112.371 E.02667
G1 X122.115 Y111.745 E.02769
G1 X121.275 Y111.719 E.02635
G1 X120.426 Y111.467 E.02777
G1 X119.821 Y111.113 E.02198
G1 X119.352 Y110.696 E.01968
M73 Q3 S15
G1 X118.768 Y110.041 E.02751
G1 X118.423 Y109.43 E.022
G1 X118.188 Y108.613 E.02666
G1 X118.191 Y107.73 E.02769
G1 X117.615 Y107.117 E.02637
G1 X117.193 Y106.339 E.02775
G1 X117.015 Y105.66 E.02201
M73 P3 R15
G1 X116.978 Y105.013 E.02032
G1 X117.029 Y104.158 E.02686
G1 X117.217 Y103.482 E.022
G1 X117.629 Y102.738 E.02667
G1 X118.255 Y102.115 E.02769
G1 X118.281 Y101.275 E.02635
G1 X118.533 Y100.426 E.02777
G1 X118.77 Y100.022 E.01469
M204 S1000
G1 X119.092 Y100.213 F10800
M204 S800
G1 F1200
G1 X119.201 Y100.03 E.00668
G1 X119.589 Y99.6 E.01816
G1 X120.154 Y99.092 E.02382
G1 X120.773 Y98.747 E.02222
G1 X121.521 Y98.552 E.02424
G1 X122.441 Y98.569 E.02885
G1 X123.129 Y97.903 E.03002
G1 X123.905 Y97.506 E.02733
G1 X124.497 Y97.375 E.01901
G1 X125.076 Y97.356 E.01816
G1 X125.645 Y97.382 E.01786
G1 X126.269 Y97.526 E.02008
G1 X127.088 Y97.971 E.02922
G1 X127.755 Y98.663 E.03014
G1 X127.937 Y98.634 E.00578
G1 X128.642 Y98.65 E.02211
G1 X129.443 Y98.888 E.0262
G1 X129.97 Y99.201 E.01922
G1 X130.388 Y99.577 E.01763
G1 X130.936 Y100.193 E.02585
G1 X131.237 Y100.733 E.01938
G1 X131.441 Y101.462 E.02374
G1 X131.429 Y102.467 E.03151
G1 X131.578 Y102.575 E.00577
G1 X132.066 Y103.085 E.02213
G1 X132.464 Y103.82 E.02621
G1 X132.615 Y104.414 E.01922
G1 X132.645 Y104.975 E.01761
G1 X132.596 Y105.799 E.02588
G1 X132.427 Y106.393 E.01936
G1 X132.056 Y107.053 E.02374
G1 X131.337 Y107.755 E.03151
G1 X131.366 Y107.937 E.00578
G1 X131.35 Y108.642 E.02211
G1 X131.112 Y109.443 E.0262
G1 X130.799 Y109.97 E.01922
G1 X130.423 Y110.388 E.01763
G1 X129.807 Y110.936 E.02585
G1 X129.267 Y111.237 E.01938
G1 X128.538 Y111.441 E.02374
G1 X127.533 Y111.429 E.03151
G1 X127.425 Y111.578 E.00577
G1 X126.915 Y112.066 E.02213
G1 X126.18 Y112.464 E.02621
G1 X125.586 Y112.615 E.01922
G1 X125.025 Y112.645 E.01761
G1 X124.202 Y112.596 E.02585
G1 X123.607 Y112.427 E.01939
G1 X122.947 Y112.056 E.02374
G1 X122.245 Y111.337 E.03151
G1 X122.063 Y111.366 E.00578
G1 X121.358 Y111.35 E.02211
G1 X120.557 Y111.112 E.0262
G1 X120.03 Y110.799 E.01922
G1 X119.612 Y110.423 E.01763
G1 X119.064 Y109.807 E.02585
G1 X118.763 Y109.267 E.01938
G1 X118.559 Y108.538 E.02374
G1 X118.571 Y107.533 E.03151
G1 X118.422 Y107.425 E.00577
G1 X117.934 Y106.915 E.02213
G1 X117.536 Y106.18 E.02621
G1 X117.385 Y105.586 E.01922
G1 X117.355 Y105.025 E.01761
G1 X117.404 Y104.202 E.02585
G1 X117.573 Y103.607 E.01939
G1 X117.944 Y102.947 E.02374
G1 X118.663 Y102.245 E.03151
G1 X118.634 Y102.063 E.00578
G1 X118.65 Y101.358 E.02211
G1 X118.888 Y100.557 E.0262
G1 X119.061 Y100.265 E.01064
M204 S1000
G1 X119.382 Y100.459 F10800
M204 S800
G1 F1200
G1 X119.513 Y100.243 E.00792
G1 X119.848 Y99.874 E.01563
G1 X120.389 Y99.388 E.0228
G1 X120.934 Y99.089 E.01949
