; generated by PrusaSlicer 2.6.1+win64 on 2023-09-11 at 14:25:07 UTC


;
;
; 

; external perimeters extrusion width = 0.45mm
; perimeters extrusion width = 0.45mm
; infill extrusion width = 0.45mm
; solid infill extrusion width = 0.45mm
; top infill extrusion width = 0.40mm
; support material extrusion width = 0.35mm
; first layer extrusion width = 0.42mm

M73 P0 R8
M73 Q0 S8
M201 X1000 Y1000 Z200 E5000 ; sets maximum accelerations, mm/sec^2
M203 X200 Y200 Z12 E120 ; sets maximum feedrates, mm / sec
M204 S1250 T1250 ; sets acceleration (S) and retract acceleration (R), mm/sec^2
M205 X8.00 Y8.00 Z0.40 E4.50 ; sets the jerk limits, mm/sec
M205 S0 T0 ; sets the minimum extruding and travel feed rate, mm/sec
;TYPE:Custom
M862.3 P "MK3S" ; printer model check
M862.1 P0.4 ; nozzle diameter check
M115 U3.13.0 ; tell printer latest fw version
G90 ; use absolute coordinates
M83 ; extruder relative mode
M104 S215 ; set extruder temp
M140 S60 ; set bed temp
M190 S60 ; wait for bed temp
M109 S215 ; wait for extruder temp
G28 W ; home all without mesh bed level
G80 ; mesh bed leveling

G1 Z0.2 F720
G1 Y-3 F1000 ; go outside print area
G92 E0
G1 X60 E9 F1000 ; intro line
G1 X100 E12.5 F1000 ; intro line

G92 E0
M221 S95

; Don't change E values below. Excessive value can damage the printer.
M907 E430 ; set extruder motor current
G21 ; set units to millimeters
G90 ; use absolute coordinates
M83 ; use relative distances for extrusion
M900 K0.05 ; Filament gcode LA 1.5
M900 K30 ; Filament gcode LA 1.0
M107
;LAYER_CHANGE
;Z:0.2
;HEIGHT:0.2
;BEFORE_LAYER_CHANGE
G92 E0.0
;0.2


G1 E-.8 F2100
M73 P1 R8
M73 Q1 S8
G1 Z.4 F720
;AFTER_LAYER_CHANGE
;0.2
G1 X115.897 Y98.427 F10800
G1 Z.2 F720
G1 E.8 F2100
M204 S800
;TYPE:Skirt/Brim
;WIDTH:0.42
G1 F1200
G1 X119.1 Y95.435 E.13743
G1 X119.92 Y94.906 E.0306
G1 X122.298 Y94.039 E.07936
G1 X123.211 Y93.915 E.02889
G1 X127.592 Y94.065 E.13744
G1 X128.545 Y94.27 E.03056
G1 X129.776 Y94.79 E.0419
G1 X130.84 Y95.338 E.03753
G1 X131.573 Y95.897 E.0289
G1 X134.565 Y99.1 E.13743
G1 X135.094 Y99.92 E.0306
G1 X135.961 Y102.298 E.07936
G1 X136.085 Y103.211 E.02889
G1 X135.935 Y107.592 E.13744
G1 X135.73 Y108.545 E.03056
G1 X134.662 Y110.84 E.07937
G1 X134.103 Y111.573 E.0289
G1 X130.9 Y114.565 E.13743
G1 X130.08 Y115.094 E.0306
G1 X127.702 Y115.961 E.07936
G1 X126.789 Y116.085 E.02889
G1 X122.408 Y115.935 E.13744
G1 X121.455 Y115.73 E.03056
G1 X119.16 Y114.662 E.07937
G1 X118.427 Y114.103 E.0289
M73 Q2 S8
G1 X115.435 Y110.9 E.13743
G1 X114.906 Y110.08 E.0306
G1 X114.039 Y107.702 E.07936
G1 X113.915 Y106.789 E.02889
M73 P2 R8
G1 X114.065 Y102.408 E.13744
G1 X114.27 Y101.455 E.03056
G1 X115.338 Y99.16 E.07937
G1 X115.861 Y98.475 E.02702
M204 S1000
G1 X116.154 Y98.703 F10800
M204 S800
G1 F1200
G1 X119.358 Y95.711 E.13745
G1 X120.065 Y95.254 E.0264
G1 X122.41 Y94.399 E.07826
G1 X123.198 Y94.292 E.02493
G1 X127.579 Y94.442 E.13744
G1 X128.402 Y94.619 E.02639
G1 X129.619 Y95.133 E.04142
G1 X130.665 Y95.672 E.03689
G1 X131.297 Y96.154 E.02492
G1 X134.289 Y99.358 E.13745
G1 X134.746 Y100.065 E.0264
G1 X135.601 Y102.41 E.07826
G1 X135.708 Y103.198 E.02493
G1 X135.558 Y107.579 E.13744
G1 X135.381 Y108.402 E.02639
G1 X134.328 Y110.665 E.07826
G1 X133.846 Y111.297 E.02492
G1 X130.642 Y114.289 E.13745
G1 X129.935 Y114.746 E.0264
G1 X127.59 Y115.601 E.07826
G1 X126.802 Y115.708 E.02493
G1 X122.421 Y115.558 E.13744
G1 X121.598 Y115.381 E.02639
G1 X119.335 Y114.328 E.07826
G1 X118.703 Y113.846 E.02492
G1 X115.711 Y110.642 E.13745
G1 X115.254 Y109.935 E.0264
G1 X114.399 Y107.59 E.07826
G1 X114.292 Y106.802 E.02493
G1 X114.442 Y102.421 E.13744
G1 X114.619 Y101.598 E.02639
G1 X115.672 Y99.335 E.07826
G1 X116.118 Y98.75 E.02306
M204 S1000
;WIPE_START
G1 F8640
G1 X118.645 Y96.38 E-.8
;WIPE_END
G1 Z.6 F720
G1 X118.34 Y100.756 F10800
G1 Z.2 F720
G1 E.8 F2100
M204 S800
G1 F1200
G1 X118.77 Y100.395 E.0176
G1 X119.432 Y100.078 E.02301
G1 X119.948 Y99.969 E.01654
G1 X120.241 Y99.94 E.00923
G1 X120.473 Y99.062 E.02847
G1 X120.863 Y98.414 E.02371
G1 X121.537 Y97.834 E.02788
G1 X122.652 Y97.383 E.03771
G1 X123.609 Y97.298 E.03012
M73 Q3 S8
G1 X124.13 Y97.408 E.0167
G1 X124.599 Y97.612 E.01604
G1 X125.225 Y98.055 E.02405
G1 X125.845 Y97.669 E.0229
G1 X126.464 Y97.455 E.02054
G1 X126.996 Y97.402 E.01676
G1 X127.62 Y97.484 E.01973
G1 X128.833 Y98.019 E.04157
M73 P3 R8
G1 X129.242 Y98.338 E.01626
G1 X129.605 Y98.77 E.01769
G1 X129.922 Y99.432 E.02301
G1 X130.031 Y99.948 E.01654
G1 X130.06 Y100.244 E.00933
G1 X130.749 Y100.402 E.02216
G1 X131.445 Y100.752 E.02443
G1 X131.946 Y101.227 E.02165
G1 X132.195 Y101.582 E.0136
G1 X132.629 Y102.699 E.03757
G1 X132.705 Y103.54 E.02648
G1 X132.495 Y104.379 E.02712
G1 X132.131 Y104.983 E.02211
G1 X131.933 Y105.224 E.00978
G1 X132.152 Y105.535 E.01193
G1 X132.422 Y106.048 E.01818
G1 X132.59 Y106.835 E.02523
G1 X132.487 Y107.73 E.02825
G1 X132.057 Y108.707 E.03347
G1 X131.577 Y109.329 E.02463
G1 X131.081 Y109.699 E.0194
G1 X130.563 Y109.925 E.01772
G1 X130.072 Y110.028 E.01573
G1 X129.757 Y110.054 E.00991
G1 X129.598 Y110.749 E.02235
G1 X129.248 Y111.445 E.02443
G1 X128.773 Y111.946 E.02165
G1 X128.418 Y112.195 E.0136
G1 X127.301 Y112.629 E.03757
G1 X126.46 Y112.705 E.02648
G1 X125.621 Y112.495 E.02712
G1 X125.017 Y112.131 E.02211
G1 X124.775 Y111.933 E.0098
G1 X124.468 Y112.15 E.01179
G1 X123.953 Y112.421 E.01825
G1 X123.172 Y112.59 E.02505
G1 X122.28 Y112.489 E.02815
G1 X121.279 Y112.047 E.03431
G1 X120.789 Y111.691 E.01899
G1 X120.392 Y111.227 E.01915
G1 X120.092 Y110.614 E.0214
G1 X119.933 Y109.754 E.02742
G1 X119.251 Y109.598 E.02194
G1 X118.555 Y109.248 E.02443
G1 X118.054 Y108.773 E.02165
G1 X117.805 Y108.418 E.0136
G1 X117.371 Y107.301 E.03757
G1 X117.295 Y106.46 E.02648
G1 X117.505 Y105.621 E.02712
G1 X117.869 Y105.017 E.02211
G1 X118.06 Y104.783 E.00947
G1 X117.669 Y104.155 E.0232
G1 X117.455 Y103.537 E.02051
G1 X117.403 Y102.965 E.01801
G1 X117.484 Y102.378 E.01858
G1 X118.047 Y101.119 E.04324
G1 X118.303 Y100.802 E.01278
M204 S1000
G1 X118.596 Y101.035 F10800
M204 S800
G1 F1200
G1 X118.958 Y100.722 E.015
G1 X119.532 Y100.442 E.02002
G1 X120.015 Y100.341 E.01547
G1 X120.592 Y100.287 E.01817
G1 X120.628 Y99.956 E.01044
G1 X120.811 Y99.232 E.02341
G1 X121.17 Y98.635 E.02184
G1 X121.755 Y98.143 E.02397
G1 X122.764 Y97.744 E.03402
G1 X123.561 Y97.673 E.02509
G1 X123.999 Y97.762 E.01401
G1 X124.434 Y97.952 E.01488
G1 X124.771 Y98.181 E.01278
G1 X125.216 Y98.55 E.01813
G1 X125.441 Y98.366 E.00911
G1 X125.99 Y98.018 E.02038
G1 X126.565 Y97.819 E.01908
G1 X127.009 Y97.78 E.01397
G1 X127.495 Y97.841 E.01536
G1 X128.623 Y98.332 E.03857
G1 X128.97 Y98.6 E.01375
G1 X129.278 Y98.958 E.01481
G1 X129.558 Y99.533 E.02005
G1 X129.659 Y100.015 E.01544
G1 X129.713 Y100.592 E.01817
G1 X130.033 Y100.626 E.01009
G1 X130.601 Y100.75 E.01823
G1 X131.249 Y101.076 E.02274
G1 X131.651 Y101.461 E.01745
G1 X131.853 Y101.743 E.01088
G1 X132.257 Y102.765 E.03446
G1 X132.331 Y103.482 E.0226
G1 X132.137 Y104.258 E.02508
G1 X131.818 Y104.771 E.01894
G1 X131.456 Y105.206 E.01774
G1 X131.825 Y105.723 E.01992
G1 X132.077 Y106.201 E.01694
G1 X132.212 Y106.827 E.02008
G1 X132.129 Y107.605 E.02453
G1 X131.722 Y108.533 E.03177
G1 X131.297 Y109.075 E.0216
G1 X130.877 Y109.382 E.01631
G1 X130.467 Y109.56 E.01401
G1 X130.008 Y109.656 E.0147
G1 X129.41 Y109.7 E.0188
G1 X129.374 Y110.033 E.0105
G1 X129.25 Y110.601 E.01823
G1 X128.924 Y111.249 E.02274
G1 X128.539 Y111.651 E.01745
G1 X128.257 Y111.853 E.01088
G1 X127.235 Y112.257 E.03446
G1 X126.518 Y112.331 E.0226
G1 X125.742 Y112.137 E.02508
G1 X125.229 Y111.818 E.01894
G1 X124.792 Y111.454 E.01783
G1 X124.28 Y111.823 E.01979
G1 X123.8 Y112.076 E.01701
G1 X123.179 Y112.212 E.01993
G1 X122.404 Y112.132 E.02443
G1 X121.45 Y111.71 E.03271
G1 X121.058 Y111.427 E.01516
G1 X120.719 Y111.038 E.01618
G1 X120.443 Y110.473 E.01972
G1 X120.306 Y109.69 E.02492
G1 X120.295 Y109.409 E.00882
G1 X119.967 Y109.374 E.01034
G1 X119.399 Y109.25 E.01823
G1 X118.751 Y108.924 E.02274
G1 X118.349 Y108.539 E.01745
G1 X118.147 Y108.257 E.01088
G1 X117.743 Y107.235 E.03446
G1 X117.669 Y106.518 E.0226
G1 X117.863 Y105.742 E.02508
G1 X118.182 Y105.229 E.01894
G1 X118.551 Y104.786 E.01808
G1 X118.366 Y104.559 E.00918
G1 X118.018 Y104.01 E.02038
G1 X117.819 Y103.435 E.01908
G1 X117.78 Y102.991 E.01397
G1 X117.841 Y102.503 E.01542
G1 X118.358 Y101.334 E.04008
G1 X118.558 Y101.082 E.01009
M204 S1000
G1 X118.853 Y101.313 F10800
M204 S800
G1 F1200
G1 X119.15 Y101.047 E.0125
G1 X119.634 Y100.806 E.01695
G1 X120.081 Y100.712 E.01432
M73 Q4 S8
G1 X120.585 Y100.666 E.01587
G1 X120.934 Y100.667 E.01094
G1 X120.998 Y100.03 E.02007
G1 X121.151 Y99.396 E.02045
G1 X121.438 Y98.902 E.01791
G1 X121.973 Y98.453 E.0219
G1 X122.875 Y98.105 E.03031
G1 X123.513 Y98.048 E.02008
G1 X123.902 Y98.127 E.01245
M73 P4 R8
G1 X124.263 Y98.288 E.01239
G1 X124.549 Y98.486 E.01091
G1 X124.934 Y98.806 E.0157
G1 X125.189 Y99.064 E.01137
G1 X125.657 Y98.675 E.01908
G1 X126.135 Y98.367 E.01783
G1 X126.664 Y98.184 E.01755
G1 X127.019 Y98.157 E.01116
G1 X127.372 Y98.198 E.01114
G1 X128.414 Y98.647 E.03558
G1 X128.701 Y98.864 E.01128
G1 X128.953 Y99.15 E.01195
G1 X129.194 Y99.634 E.01695
G1 X129.288 Y100.081 E.01432
G1 X129.334 Y100.585 E.01587
G1 X129.333 Y100.934 E.01094
G1 X129.964 Y100.996 E.01988
G1 X130.498 Y101.113 E.01714
G1 X131.009 Y101.368 E.01791
G1 X131.376 Y101.72 E.01594
G1 X131.531 Y101.941 E.00846
G1 X131.896 Y102.876 E.03147
G1 X131.952 Y103.482 E.01908
G1 X131.781 Y104.13 E.02101
G1 X131.508 Y104.556 E.01586
G1 X131.16 Y104.97 E.01696
G1 X130.924 Y105.192 E.01016
G1 X131.173 Y105.459 E.01145
G1 X131.497 Y105.91 E.01741
G1 X131.73 Y106.353 E.01569
G1 X131.837 Y106.873 E.01665
G1 X131.772 Y107.48 E.01914
G1 X131.387 Y108.358 E.03006
G1 X131.02 Y108.819 E.01848
G1 X130.706 Y109.045 E.01213
G1 X130.369 Y109.195 E.01157
G1 X129.943 Y109.284 E.01365
G1 X129.064 Y109.345 E.02763
G1 X129.004 Y109.964 E.0195
G1 X128.887 Y110.498 E.01714
G1 X128.632 Y111.009 E.01791
G1 X128.28 Y111.376 E.01594
G1 X128.059 Y111.531 E.00846
G1 X127.124 Y111.896 E.03147
G1 X126.518 Y111.952 E.01908
G1 X125.87 Y111.781 E.02101
G1 X125.444 Y111.508 E.01586
G1 X125.03 Y111.16 E.01696
G1 X124.809 Y110.925 E.01011
G1 X124.563 Y111.154 E.01054
G1 X124.092 Y111.496 E.01825
G1 X123.648 Y111.73 E.01574
G1 X123.132 Y111.837 E.01652
G1 X122.529 Y111.775 E.01901
G1 X121.62 Y111.373 E.03116
G1 X121.325 Y111.16 E.01141
G1 X121.043 Y110.844 E.01328
G1 X120.809 Y110.38 E.01629
G1 X120.68 Y109.641 E.02352
G1 X120.668 Y109.066 E.01803
G1 X120.036 Y109.004 E.01991
G1 X119.502 Y108.887 E.01714
G1 X118.991 Y108.632 E.01791
G1 X118.624 Y108.28 E.01594
G1 X118.469 Y108.059 E.00846
G1 X118.104 Y107.124 E.03147
G1 X118.048 Y106.518 E.01908
G1 X118.219 Y105.87 E.02101
G1 X118.492 Y105.444 E.01586
G1 X118.84 Y105.03 E.01696
G1 X119.068 Y104.816 E.0098
G1 X118.675 Y104.343 E.01928
G1 X118.367 Y103.865 E.01783
G1 X118.184 Y103.336 E.01755
G1 X118.157 Y102.981 E.01116
G1 X118.198 Y102.628 E.01114
G1 X118.67 Y101.547 E.03698
G1 X118.816 Y101.36 E.00744
M204 S1000
G1 X119.113 Y101.588 F10800
M204 S800
G1 F1200
G1 X119.379 Y101.348 E.01123
G1 X119.775 Y101.156 E.0138
G1 X120.124 Y101.087 E.01115
G1 X120.61 Y101.043 E.0153
G1 X120.957 Y101.045 E.01088
G1 X121.338 Y101.093 E.01204
G1 X121.316 Y100.641 E.01419
G1 X121.368 Y100.102 E.01698
G1 X121.495 Y99.553 E.01767
G1 X121.709 Y99.167 E.01384
G1 X122.19 Y98.763 E.0197
G1 X122.982 Y98.467 E.02651
G1 X123.468 Y98.423 E.0153
G1 X123.772 Y98.481 E.0097
G1 X124.065 Y98.609 E.01003
G1 X124.315 Y98.782 E.00953
G1 X124.686 Y99.09 E.01512
G1 X124.959 Y99.368 E.01222
G1 X125.168 Y99.649 E.01098
G1 X125.458 Y99.332 E.01347
G1 X125.871 Y98.986 E.01689
G1 X126.32 Y98.696 E.01676
G1 X126.72 Y98.557 E.01328
G1 X126.995 Y98.534 E.00865
G1 X127.301 Y98.569 E.00966
G1 X128.208 Y98.963 E.03101
G1 X128.432 Y99.129 E.00874
G1 X128.652 Y99.379 E.01044
G1 X128.844 Y99.775 E.0138
G1 X128.913 Y100.124 E.01115
G1 X128.957 Y100.61 E.0153
G1 X128.955 Y100.957 E.01088
G1 X128.907 Y101.338 E.01204
G1 X129.359 Y101.316 E.01419
G1 X129.895 Y101.367 E.01688
G1 X130.396 Y101.477 E.01608
G1 X130.769 Y101.66 E.01303
G1 X131.1 Y101.978 E.01439
G1 X131.207 Y102.135 E.00596
G1 X131.534 Y102.985 E.02856
G1 X131.574 Y103.476 E.01545
G1 X131.427 Y103.998 E.017
G1 X131.214 Y104.321 E.01213
G1 X130.88 Y104.718 E.01627
G1 X130.383 Y105.174 E.02115
G1 X130.875 Y105.69 E.02235
G1 X131.183 Y106.119 E.01656
G1 X131.382 Y106.501 E.01351
G1 X131.462 Y106.916 E.01325
G1 X131.415 Y107.355 E.01384
G1 X131.052 Y108.182 E.02832
G1 X130.745 Y108.559 E.01524
G1 X130.532 Y108.71 E.00819
G1 X130.27 Y108.83 E.00904
G1 X129.876 Y108.913 E.01262
G1 X129.302 Y108.959 E.01806
G1 X128.663 Y108.924 E.02007
G1 X128.684 Y109.359 E.01366
G1 X128.633 Y109.895 E.01688
G1 X128.523 Y110.396 E.01608
G1 X128.34 Y110.769 E.01303
G1 X128.022 Y111.1 E.01439
G1 X127.865 Y111.207 E.00596
G1 X127.015 Y111.534 E.02856
G1 X126.524 Y111.574 E.01545
G1 X126.002 Y111.427 E.017
G1 X125.679 Y111.214 E.01213
G1 X125.282 Y110.88 E.01627
G1 X124.826 Y110.384 E.02113
G1 X124.331 Y110.857 E.02147
G1 X123.882 Y111.182 E.01738
G1 X123.499 Y111.382 E.01355
G1 X123.089 Y111.461 E.01309
G1 X122.654 Y111.418 E.01371
G1 X121.793 Y111.037 E.02952
G1 X121.568 Y110.87 E.00879
M73 P4 R7
G1 X121.345 Y110.616 E.0106
G1 X121.161 Y110.241 E.0131
G1 X121.054 Y109.595 E.02053
G1 X121.045 Y109.043 E.01731
G1 X121.092 Y108.662 E.01204
G1 X120.641 Y108.684 E.01416
G1 X120.105 Y108.633 E.01688
G1 X119.604 Y108.523 E.01608
G1 X119.231 Y108.34 E.01303
G1 X118.9 Y108.022 E.01439
G1 X118.793 Y107.865 E.00596
G1 X118.466 Y107.015 E.02856
G1 X118.426 Y106.524 E.01545
G1 X118.573 Y106.002 E.017
G1 X118.786 Y105.679 E.01213
G1 X119.12 Y105.282 E.01627
G1 X119.629 Y104.815 E.02166
G1 X119.332 Y104.542 E.01265
G1 X118.986 Y104.129 E.01689
G1 X118.696 Y103.68 E.01676
G1 X118.557 Y103.28 E.01328
G1 X118.534 Y103.005 E.00865
G1 X118.569 Y102.7 E.00963
G1 X118.983 Y101.758 E.03226
G1 X119.077 Y101.636 E.00483
M204 S1000
G1 X119.377 Y101.859 F10800
M204 S800
G1 F1200
G1 X119.607 Y101.65 E.00974
G1 X119.91 Y101.509 E.01048
M73 Q5 S8
G1 X120.182 Y101.459 E.00867
G1 X120.633 Y101.419 E.0142
G1 X120.94 Y101.422 E.00963
G1 X121.408 Y101.485 E.01481
G1 X121.819 Y101.596 E.01335
G1 X121.723 Y101.181 E.01336
G1 X121.693 Y100.661 E.01633
G1 X121.738 Y100.174 E.01533
G1 X121.857 Y99.662 E.01648
G1 X121.984 Y99.427 E.00838
G1 X122.355 Y99.104 E.01542
G1 X123.091 Y98.829 E.02464
M73 P5 R7
G1 X123.423 Y98.798 E.01045
G1 X123.679 Y98.847 E.00817
G1 X123.866 Y98.93 E.00641
G1 X124.081 Y99.077 E.00817
G1 X124.437 Y99.373 E.01452
G1 X124.678 Y99.621 E.01084
G1 X125.175 Y100.31 E.02664
G1 X125.409 Y99.947 E.01354
G1 X125.711 Y99.611 E.01417
G1 X126.086 Y99.296 E.01536
G1 X126.506 Y99.025 E.01567
G1 X126.776 Y98.931 E.00896
G1 X127.006 Y98.911 E.00724
G1 X127.224 Y98.939 E.00689
G1 X128.035 Y99.299 E.02782
G1 X128.161 Y99.393 E.00493
G1 X128.35 Y99.607 E.00895
G1 X128.491 Y99.91 E.01048
G1 X128.541 Y100.182 E.00867
G1 X128.581 Y100.633 E.0142
G1 X128.578 Y100.94 E.00963
G1 X128.515 Y101.408 E.01481
G1 X128.404 Y101.819 E.01335
G1 X128.819 Y101.723 E.01336
G1 X129.339 Y101.693 E.01633
G1 X129.826 Y101.738 E.01533
G1 X130.291 Y101.84 E.01493
G1 X130.57 Y101.981 E.0098
G1 X130.818 Y102.229 E.011
G1 X130.881 Y102.323 E.00355
G1 X131.17 Y103.09 E.0257
G1 X131.196 Y103.464 E.01175
G1 X131.076 Y103.856 E.01285
G1 X130.91 Y104.097 E.00918
G1 X130.598 Y104.467 E.01518
G1 X130.343 Y104.709 E.01102
G1 X129.693 Y105.168 E.02495
G1 X130.213 Y105.542 E.02008
G1 X130.577 Y105.922 E.0165
M73 Q5 S7
G1 X130.859 Y106.312 E.01509
G1 X131.018 Y106.603 E.0104
G1 X131.086 Y106.96 E.01139
G1 X131.058 Y107.231 E.00854
G1 X130.717 Y108.007 E.02658
G1 X130.506 Y108.267 E.0105
G1 X130.33 Y108.391 E.00675
G1 X130.137 Y108.477 E.00662
G1 X129.836 Y108.538 E.00963
G1 X129.285 Y108.582 E.01733
G1 X128.817 Y108.555 E.0147
G1 X128.184 Y108.42 E.02029
G1 X128.277 Y108.819 E.01285
G1 X128.307 Y109.339 E.01633
G1 X128.262 Y109.826 E.01533
G1 X128.16 Y110.291 E.01493
G1 X128.019 Y110.57 E.0098
