; generated by PrusaSlicer 2.6.1+win64 on 2023-09-12 at 12:14:38 UTC


;
;
; 

; external perimeters extrusion width = 0.45mm
; perimeters extrusion width = 0.45mm
; infill extrusion width = 0.45mm
; solid infill extrusion width = 0.45mm
; top infill extrusion width = 0.40mm
; first layer extrusion width = 0.42mm

M73 P0 R14
M73 Q0 S15
M201 X1000 Y1000 Z200 E5000 ; sets maximum accelerations, mm/sec^2
M203 X200 Y200 Z12 E120 ; sets maximum feedrates, mm / sec
M204 S1250 T1250 ; sets acceleration (S) and retract acceleration (R), mm/sec^2
M205 X8.00 Y8.00 Z0.40 E4.50 ; sets the jerk limits, mm/sec
M205 S0 T0 ; sets the minimum extruding and travel feed rate, mm/sec
;TYPE:Custom
M862.3 P "MK3S" ; printer model check
M862.1 P0.4 ; nozzle diameter check
M115 U3.13.0 ; tell printer latest fw version
G90 ; use absolute coordinates
M83 ; extruder relative mode
M104 S215 ; set extruder temp
M140 S60 ; set bed temp
M190 S60 ; wait for bed temp
M109 S215 ; wait for extruder temp
G28 W ; home all without mesh bed level
G80 ; mesh bed leveling

G1 Z0.2 F720
G1 Y-3 F1000 ; go outside print area
G92 E0
G1 X60 E9 F1000 ; intro line
M73 Q0 S14
G1 X100 E12.5 F1000 ; intro line

G92 E0
M221 S95

; Don't change E values below. Excessive value can damage the printer.
M907 E430 ; set extruder motor current
G21 ; set units to millimeters
G90 ; use absolute coordinates
M83 ; use relative distances for extrusion
M900 K0.05 ; Filament gcode LA 1.5
M900 K30 ; Filament gcode LA 1.0
M107
;LAYER_CHANGE
;Z:0.2
;HEIGHT:0.2
;BEFORE_LAYER_CHANGE
G92 E0.0
;0.2


G1 E-.8 F2100
G1 Z.4 F720
;AFTER_LAYER_CHANGE
;0.2
G1 X114.993 Y97.305 F10800
G1 Z.2 F720
G1 E.8 F2100
M204 S800
;TYPE:Skirt/Brim
;WIDTH:0.42
G1 F1200
G1 X116.121 Y96.102 E.05171
G1 X117.511 Y94.827 E.05914
G1 X118.337 Y94.313 E.0305
G1 X122.451 Y92.676 E.13883
G1 X123.365 Y92.483 E.02929
G1 X125.073 Y92.43 E.05358
G1 X126.898 Y92.511 E.05728
G1 X127.846 Y92.732 E.03052
G1 X131.912 Y94.483 E.13881
G1 X132.695 Y94.993 E.0293
G1 X133.898 Y96.121 E.05171
G1 X135.173 Y97.511 E.05914
G1 X135.687 Y98.337 E.0305
G1 X137.324 Y102.451 E.13883
G1 X137.517 Y103.365 E.02929
G1 X137.571 Y105.013 E.0517
M73 Q1 S14
G1 X137.489 Y106.898 E.05916
G1 X137.268 Y107.846 E.03052
G1 X135.517 Y111.912 E.13881
G1 X135.007 Y112.695 E.0293
M73 P1 R14
G1 X133.879 Y113.898 E.05171
G1 X132.489 Y115.173 E.05914
G1 X131.663 Y115.687 E.0305
G1 X127.549 Y117.324 E.13883
G1 X126.635 Y117.517 E.02929
G1 X124.987 Y117.571 E.0517
G1 X123.102 Y117.489 E.05916
G1 X122.154 Y117.268 E.03052
G1 X118.088 Y115.517 E.13881
G1 X117.305 Y115.007 E.0293
G1 X116.102 Y113.879 E.05171
G1 X114.827 Y112.489 E.05914
G1 X114.313 Y111.663 E.0305
G1 X112.676 Y107.549 E.13883
G1 X112.483 Y106.635 E.02929
G1 X112.429 Y104.987 E.0517
G1 X112.511 Y103.102 E.05916
G1 X112.732 Y102.154 E.03052
G1 X114.483 Y98.088 E.13881
G1 X114.96 Y97.355 E.02742
M204 S1000
G1 X115.27 Y97.561 F10800
M204 S800
G1 F1200
G1 X116.386 Y96.37 E.05118
G1 X117.764 Y95.107 E.05861
G1 X118.477 Y94.664 E.02632
G1 X122.591 Y93.026 E.13884
G1 X123.38 Y92.86 E.02528
G1 X125.072 Y92.807 E.05308
G1 X126.879 Y92.888 E.05671
G1 X127.696 Y93.078 E.0263
G1 X131.763 Y94.83 E.13885
G1 X132.439 Y95.269 E.02527
G1 X133.63 Y96.386 E.0512
G1 X134.893 Y97.764 E.05861
G1 X135.336 Y98.477 E.02632
G1 X136.974 Y102.591 E.13884
G1 X137.14 Y103.38 E.02528
G1 X137.194 Y105.011 E.05117
G1 X137.112 Y106.879 E.05863
G1 X136.922 Y107.696 E.0263
G1 X135.17 Y111.763 E.13885
G1 X134.731 Y112.439 E.02527
G1 X133.614 Y113.63 E.0512
G1 X132.236 Y114.893 E.05861
G1 X131.523 Y115.336 E.02632
G1 X127.409 Y116.974 E.13884
G1 X126.62 Y117.14 E.02528
G1 X124.989 Y117.194 E.05117
G1 X123.121 Y117.112 E.05863
G1 X122.304 Y116.922 E.0263
G1 X118.237 Y115.17 E.13885
G1 X117.561 Y114.731 E.02527
G1 X116.37 Y113.614 E.0512
G1 X115.107 Y112.236 E.05861
G1 X114.664 Y111.523 E.02632
G1 X113.026 Y107.409 E.13884
G1 X112.86 Y106.62 E.02528
G1 X112.806 Y104.989 E.05117
G1 X112.888 Y103.121 E.05863
G1 X113.078 Y102.304 E.0263
G1 X114.83 Y98.237 E.13885
G1 X115.237 Y97.612 E.02339
M204 S1000
;WIPE_START
G1 F8640
G1 X116.386 Y96.37 E-.39068
G1 X117.693 Y95.172 E-.40932
;WIPE_END
G1 Z.6 F720
G1 X117.607 Y99.035 F10800
G1 Z.2 F720
G1 E.8 F2100
M204 S800
G1 F1200
G1 X117.673 Y98.925 E.00402
G1 X118.286 Y98.237 E.02889
G1 X119.122 Y97.513 E.03468
G1 X120.111 Y96.98 E.03523
G1 X121.038 Y96.716 E.03022
G1 X121.683 Y96.679 E.02026
G1 X122.109 Y96.316 E.01755
G1 X123.225 Y95.745 E.03931
G1 X124.152 Y95.519 E.02992
G1 X125.131 Y95.471 E.03073
G1 X126.005 Y95.529 E.02746
G1 X127.051 Y95.806 E.03393
G1 X128.071 Y96.354 E.0363
G1 X128.544 Y96.775 E.01985
G1 X129.187 Y96.833 E.02024
G1 X130.332 Y97.221 E.03791
G1 X131.107 Y97.697 E.02852
G1 X131.763 Y98.286 E.02764
G1 X132.484 Y99.118 E.03452
G1 X133.003 Y100.07 E.034
G1 X133.291 Y101.089 E.0332
G1 X133.324 Y101.693 E.01897
G1 X133.725 Y102.168 E.01949
G1 X134.253 Y103.22 E.03691
G1 X134.477 Y104.117 E.02899
G1 X134.53 Y105.049 E.02927
G1 X134.454 Y106.121 E.0337
G1 X134.16 Y107.136 E.03313
G1 X133.616 Y108.114 E.03509
G1 X133.225 Y108.548 E.01832
G1 X133.168 Y109.183 E.01999
G1 X132.801 Y110.285 E.03642
G1 X132.329 Y111.072 E.02877
G1 X131.731 Y111.746 E.02825
G1 X130.884 Y112.483 E.0352
G1 X129.938 Y113 E.0338
G1 X128.97 Y113.282 E.03161
G1 X128.311 Y113.321 E.0207
G1 X127.832 Y113.725 E.01965
G1 X126.78 Y114.253 E.03691
G1 X125.883 Y114.477 E.02899
G1 X124.951 Y114.53 E.02927
G1 X123.879 Y114.454 E.0337
G1 X122.864 Y114.16 E.03313
G1 X121.886 Y113.616 E.03509
G1 X121.452 Y113.225 E.01832
G1 X120.817 Y113.168 E.01999
G1 X119.715 Y112.801 E.03642
G1 X118.928 Y112.329 E.02877
G1 X118.254 Y111.731 E.02825
M73 Q2 S14
G1 X117.517 Y110.884 E.0352
G1 X117 Y109.938 E.0338
G1 X116.718 Y108.97 E.03161
G1 X116.679 Y108.311 E.0207
G1 X116.275 Y107.832 E.01965
G1 X115.747 Y106.78 E.03691
G1 X115.523 Y105.883 E.02899
M73 P2 R14
G1 X115.47 Y104.951 E.02927
G1 X115.546 Y103.88 E.03366
G1 X115.856 Y102.824 E.03451
G1 X116.384 Y101.887 E.03372
G1 X116.775 Y101.452 E.01834
G1 X116.832 Y100.817 E.01999
G1 X117.199 Y99.714 E.03645
G1 X117.576 Y99.086 E.02297
M204 S1000
G1 X117.898 Y99.278 F10800
M204 S800
G1 F1200
G1 X117.967 Y99.162 E.00423
G1 X118.543 Y98.513 E.02721
G1 X119.321 Y97.834 E.03238
G1 X120.234 Y97.337 E.03259
G1 X121.12 Y97.085 E.02888
G1 X121.833 Y97.05 E.02238
G1 X122.303 Y96.64 E.01956
G1 X123.337 Y96.106 E.03649
G1 X124.224 Y95.89 E.02862
G1 X125.117 Y95.848 E.02803
G1 X125.929 Y95.899 E.02551
G1 X126.892 Y96.149 E.0312
G1 X127.872 Y96.675 E.03487
G1 X128.386 Y97.141 E.02175
G1 X129.09 Y97.198 E.02215
G1 X130.155 Y97.554 E.03521
G1 X130.869 Y97.99 E.02623
G1 X131.487 Y98.543 E.026
G1 X132.164 Y99.318 E.03227
G1 X132.646 Y100.194 E.03135
G1 X132.922 Y101.17 E.0318
G1 X132.952 Y101.841 E.02106
G1 X133.4 Y102.36 E.0215
G1 X133.892 Y103.332 E.03416
G1 X134.107 Y104.191 E.02776
G1 X134.153 Y105.036 E.02653
G1 X134.086 Y106.036 E.03142
G1 X133.804 Y107.01 E.03179
G1 X133.299 Y107.909 E.03233
G1 X132.858 Y108.388 E.02041
G1 X132.803 Y109.088 E.02202
G1 X132.466 Y110.11 E.03374
G1 X132.034 Y110.836 E.02649
G1 X131.473 Y111.471 E.02657
G1 X130.683 Y112.163 E.03293
G1 X129.812 Y112.644 E.0312
G1 X128.887 Y112.913 E.0302
G1 X128.162 Y112.95 E.02276
G1 X127.64 Y113.399 E.02159
G1 X126.668 Y113.892 E.03417
G1 X125.809 Y114.107 E.02776
G1 X124.964 Y114.153 E.02653
G1 X123.964 Y114.086 E.03142
G1 X122.99 Y113.804 E.03179
G1 X122.091 Y113.299 E.03233
G1 X121.612 Y112.858 E.02041
G1 X120.912 Y112.803 E.02202
G1 X119.89 Y112.466 E.03374
G1 X119.164 Y112.034 E.02649
G1 X118.529 Y111.473 E.02657
G1 X117.837 Y110.683 E.03293
G1 X117.356 Y109.812 E.0312
G1 X117.087 Y108.887 E.0302
G1 X117.05 Y108.162 E.02276
G1 X116.6 Y107.64 E.02161
G1 X116.108 Y106.668 E.03416
G1 X115.893 Y105.809 E.02776
G1 X115.847 Y104.964 E.02653
G1 X115.914 Y103.964 E.03142
G1 X116.196 Y102.99 E.03179
G1 X116.701 Y102.091 E.03233
G1 X117.142 Y101.612 E.02041
G1 X117.197 Y100.912 E.02202
G1 X117.534 Y99.889 E.03377
G1 X117.867 Y99.33 E.0204
M204 S1000
G1 X118.191 Y99.523 F10800
M204 S800
G1 F1200
G1 X118.282 Y99.37 E.00558
G1 X118.801 Y98.789 E.02443
G1 X119.521 Y98.154 E.0301
G1 X120.358 Y97.694 E.02995
G1 X121.201 Y97.454 E.02748
G1 X121.984 Y97.422 E.02457
G1 X122.499 Y96.963 E.02163
G1 X123.45 Y96.466 E.03364
G1 X124.261 Y96.265 E.0262
G1 X125.106 Y96.225 E.02652
G1 X125.854 Y96.269 E.02349
G1 X126.735 Y96.492 E.02849
G1 X127.671 Y96.995 E.03332
G1 X128.226 Y97.509 E.02372
G1 X128.995 Y97.563 E.02417
G1 X129.978 Y97.888 E.03246
G1 X130.631 Y98.283 E.02393
G1 X131.212 Y98.801 E.02441
G1 X131.845 Y99.52 E.03004
G1 X132.289 Y100.318 E.02863
G1 X132.553 Y101.25 E.03037
G1 X132.58 Y101.989 E.02319
G1 X133.075 Y102.554 E.02355
G1 X133.532 Y103.446 E.03142
G1 X133.731 Y104.231 E.02539
G1 X133.776 Y105.024 E.0249
G1 X133.717 Y105.953 E.02919
G1 X133.464 Y106.845 E.02907
G1 X132.981 Y107.703 E.03087
G1 X132.491 Y108.228 E.02252
G1 X132.437 Y108.995 E.02411
G1 X132.131 Y109.937 E.03106
G1 X131.739 Y110.601 E.02418
G1 X131.214 Y111.196 E.02488
G1 X130.481 Y111.844 E.03068
G1 X129.686 Y112.288 E.02855
G1 X128.804 Y112.545 E.0288
G1 X128.013 Y112.578 E.02482
G1 X127.446 Y113.075 E.02364
G1 X126.554 Y113.532 E.03142
G1 X125.769 Y113.731 E.02539
G1 X124.976 Y113.776 E.0249
G1 X124.047 Y113.717 E.02919
G1 X123.155 Y113.464 E.02907
G1 X122.297 Y112.981 E.03087
G1 X121.772 Y112.491 E.02252
G1 X121.005 Y112.437 E.02411
G1 X120.063 Y112.131 E.03106
G1 X119.399 Y111.739 E.02418
G1 X118.804 Y111.214 E.02488
G1 X118.156 Y110.481 E.03068
G1 X117.712 Y109.686 E.02855
G1 X117.455 Y108.804 E.0288
G1 X117.422 Y108.013 E.02482
G1 X116.925 Y107.446 E.02364
G1 X116.468 Y106.554 E.03142
G1 X116.269 Y105.769 E.02539
G1 X116.224 Y104.976 E.0249
G1 X116.283 Y104.047 E.02919
G1 X116.536 Y103.155 E.02907
G1 X117.019 Y102.297 E.03087
G1 X117.509 Y101.772 E.02252
G1 X117.563 Y101.005 E.02411
G1 X117.869 Y100.063 E.03106
G1 X118.16 Y99.574 E.01784
M204 S1000
G1 X118.483 Y99.765 F10800
M204 S800
G1 F1200
G1 X118.576 Y99.607 E.00575
G1 X119.06 Y99.063 E.02283
G1 X119.723 Y98.473 E.02783
G1 X120.483 Y98.051 E.02726
G1 X121.281 Y97.823 E.02602
G1 X122.135 Y97.794 E.02679
G1 X122.698 Y97.284 E.02382
G1 X123.564 Y96.827 E.0307
G1 X124.333 Y96.636 E.02484
G1 X125.095 Y96.602 E.02392
G1 X125.782 Y96.639 E.02157
G1 X126.578 Y96.836 E.02571
G1 X127.47 Y97.315 E.03175
G1 X128.067 Y97.877 E.02571
G1 X128.903 Y97.93 E.02626
G1 X129.802 Y98.222 E.02964
G1 X130.421 Y98.597 E.02269
G1 X130.937 Y99.06 E.02174
G1 X131.527 Y99.723 E.02783
G1 X131.933 Y100.443 E.02592
G1 X132.184 Y101.329 E.02887
G1 X132.206 Y102.137 E.02534
G1 X132.752 Y102.749 E.02572
G1 X133.173 Y103.562 E.02871
G1 X133.356 Y104.271 E.02296
G1 X133.399 Y105.013 E.0233
G1 X133.348 Y105.873 E.02701
G1 X133.124 Y106.681 E.02629
G1 X132.665 Y107.497 E.02936
G1 X132.123 Y108.068 E.02468
G1 X132.07 Y108.903 E.02623
G1 X131.795 Y109.764 E.02834
G1 X131.424 Y110.393 E.0229
G1 X130.955 Y110.922 E.02217
G1 X130.277 Y111.526 E.02847
G1 X129.559 Y111.932 E.02586
G1 X128.722 Y112.176 E.02734
G1 X127.864 Y112.206 E.02692
G1 X127.251 Y112.752 E.02574
G1 X126.438 Y113.173 E.02871
G1 X125.729 Y113.356 E.02296
G1 X124.987 Y113.399 E.0233
G1 X124.127 Y113.348 E.02701
G1 X123.319 Y113.124 E.02629
G1 X122.503 Y112.665 E.02936
G1 X121.932 Y112.123 E.02468
G1 X121.097 Y112.07 E.02623
G1 X120.236 Y111.795 E.02834
G1 X119.607 Y111.424 E.0229
G1 X119.078 Y110.955 E.02217
G1 X118.474 Y110.277 E.02847
G1 X118.068 Y109.559 E.02586
G1 X117.824 Y108.722 E.02734
G1 X117.794 Y107.864 E.02692
G1 X117.248 Y107.251 E.02574
G1 X116.827 Y106.438 E.02871
G1 X116.644 Y105.729 E.02296
G1 X116.601 Y104.987 E.0233
G1 X116.652 Y104.127 E.02701
G1 X116.876 Y103.319 E.02629
G1 X117.335 Y102.503 E.02936
M73 Q3 S14
G1 X117.877 Y101.932 E.02468
G1 X117.93 Y101.097 E.02623
G1 X118.205 Y100.236 E.02834
G1 X118.453 Y99.816 E.01529
M204 S1000
G1 X118.775 Y100.009 F10800
M204 S800
G1 F1200
G1 X118.89 Y99.817 E.00702
G1 X119.318 Y99.337 E.02016
G1 X119.958 Y98.769 E.02683
M73 P3 R14
G1 X120.607 Y98.407 E.0233
G1 X121.361 Y98.193 E.02457
G1 X122.287 Y98.168 E.02904
G1 X122.898 Y97.605 E.02605
G1 X123.678 Y97.187 E.02775
G1 X124.405 Y97.007 E.02348
G1 X125.085 Y96.979 E.02134
G1 X125.712 Y97.01 E.01968
G1 X126.422 Y97.18 E.02289
G1 X127.269 Y97.635 E.03015
G1 X127.906 Y98.246 E.02768
G1 X128.812 Y98.296 E.02845
G1 X129.628 Y98.557 E.02686
G1 X130.183 Y98.89 E.02029
G1 X130.663 Y99.318 E.02016
G1 X131.231 Y99.958 E.02683
G1 X131.592 Y100.606 E.02326
G1 X131.814 Y101.406 E.02603
G1 X131.831 Y102.286 E.0276
G1 X132.429 Y102.945 E.0279
G1 X132.828 Y103.715 E.02719
G1 X132.986 Y104.345 E.02036
G1 X133.022 Y105.003 E.02066
G1 X132.979 Y105.792 E.02478
G1 X132.767 Y106.557 E.02489
G1 X132.35 Y107.289 E.02641
G1 X131.754 Y107.906 E.0269
G1 X131.704 Y108.812 E.02845
G1 X131.443 Y109.628 E.02686
G1 X131.11 Y110.184 E.02032
G1 X130.696 Y110.648 E.0195
G1 X130.041 Y111.231 E.02749
G1 X129.433 Y111.576 E.02192
G1 X128.64 Y111.807 E.0259
G1 X127.714 Y111.832 E.02904
G1 X127.055 Y112.428 E.02786
G1 X126.285 Y112.828 E.02721
G1 X125.655 Y112.986 E.02036
G1 X124.997 Y113.022 E.02066
G1 X124.208 Y112.979 E.02478
G1 X123.443 Y112.767 E.02489
G1 X122.711 Y112.35 E.02641
G1 X122.094 Y111.754 E.0269
G1 X121.188 Y111.704 E.02845
G1 X120.372 Y111.443 E.02686
G1 X119.816 Y111.11 E.02032
G1 X119.352 Y110.696 E.0195
G1 X118.769 Y110.041 E.02749
G1 X118.424 Y109.433 E.02192
G1 X118.193 Y108.64 E.0259
G1 X118.168 Y107.714 E.02904
G1 X117.571 Y107.055 E.02788
G1 X117.172 Y106.285 E.02719
G1 X117.014 Y105.655 E.02036
G1 X116.978 Y104.997 E.02066
G1 X117.021 Y104.208 E.02478
G1 X117.233 Y103.443 E.02489
G1 X117.65 Y102.711 E.02641
G1 X118.246 Y102.094 E.0269
G1 X118.296 Y101.188 E.02845
G1 X118.557 Y100.372 E.02686
G1 X118.744 Y100.061 E.01138
M204 S1000
G1 X119.064 Y100.256 F10800
M204 S800
G1 F1200
G1 X119.202 Y100.029 E.00833
G1 X119.576 Y99.613 E.01754
G1 X120.193 Y99.065 E.02587
G1 X120.769 Y98.749 E.0206
G1 X121.438 Y98.563 E.02177
G1 X122.202 Y98.547 E.02396
G1 X122.456 Y98.592 E.00809
G1 X122.598 Y98.395 E.00761
G1 X123.098 Y97.925 E.02152
G1 X123.834 Y97.531 E.02618
G1 X124.473 Y97.378 E.0206
G1 X125.075 Y97.356 E.01889
G1 X125.645 Y97.382 E.01789
G1 X126.266 Y97.525 E.01998
G1 X127.066 Y97.954 E.02846
G1 X127.59 Y98.466 E.02297
G1 X127.733 Y98.67 E.00781
G1 X128.006 Y98.628 E.00866
G1 X128.721 Y98.663 E.02245
G1 X129.491 Y98.909 E.02534
G1 X129.971 Y99.202 E.01763
G1 X130.387 Y99.576 E.01754
G1 X130.935 Y100.193 E.02587
G1 X131.236 Y100.731 E.01933
G1 X131.437 Y101.439 E.02308
G1 X131.453 Y102.202 E.02393
G1 X131.408 Y102.456 E.00809
G1 X131.606 Y102.599 E.00766
G1 X132.106 Y103.141 E.02312
G1 X132.482 Y103.868 E.02566
G1 X132.615 Y104.416 E.01768
G1 X132.644 Y104.993 E.01811
G1 X132.604 Y105.751 E.0238
G1 X132.411 Y106.43 E.02213
G1 X132.036 Y107.079 E.0235
G1 X131.538 Y107.588 E.02233
G1 X131.329 Y107.732 E.00796
G1 X131.372 Y108.006 E.0087
G1 X131.337 Y108.721 E.02245
G1 X131.091 Y109.491 E.02534
G1 X130.798 Y109.971 E.01763
G1 X130.424 Y110.387 E.01754
G1 X129.807 Y110.935 E.02587
G1 X129.269 Y111.236 E.01933
G1 X128.561 Y111.437 E.02308
G1 X127.798 Y111.453 E.02393
G1 X127.544 Y111.408 E.00809
G1 X127.401 Y111.606 E.00766
G1 X126.859 Y112.106 E.02312
G1 X126.132 Y112.482 E.02566
G1 X125.584 Y112.615 E.01768
G1 X125.007 Y112.644 E.01811
G1 X124.249 Y112.604 E.0238
G1 X123.57 Y112.411 E.02213
G1 X122.921 Y112.036 E.0235
G1 X122.412 Y111.538 E.02233
G1 X122.268 Y111.329 E.00796
G1 X121.994 Y111.372 E.0087
G1 X121.279 Y111.337 E.02245
G1 X120.509 Y111.091 E.02534
G1 X120.029 Y110.798 E.01763
G1 X119.613 Y110.424 E.01754
G1 X119.065 Y109.807 E.02587
G1 X118.764 Y109.269 E.01933
G1 X118.563 Y108.561 E.02308
G1 X118.547 Y107.798 E.02393
G1 X118.592 Y107.544 E.00809
G1 X118.394 Y107.401 E.00766
G1 X117.894 Y106.859 E.02312
G1 X117.518 Y106.132 E.02566
G1 X117.385 Y105.584 E.01768
G1 X117.356 Y105.007 E.01811
G1 X117.396 Y104.249 E.0238
G1 X117.589 Y103.57 E.02213
G1 X117.964 Y102.921 E.0235
G1 X118.462 Y102.412 E.02233
G1 X118.671 Y102.268 E.00796
G1 X118.628 Y101.994 E.0087
