; generated by PrusaSlicer 2.6.1+win64 on 2023-09-18 at 19:07:27 UTC


;
;
; 

; external perimeters extrusion width = 0.25mm
; perimeters extrusion width = 0.25mm
; infill extrusion width = 0.25mm
; solid infill extrusion width = 0.25mm
; top infill extrusion width = 0.25mm
; first layer extrusion width = 0.30mm

M73 P0 R18
M73 Q0 S18
M201 X1000 Y1000 Z200 E5000 ; sets maximum accelerations, mm/sec^2
M203 X200 Y200 Z12 E120 ; sets maximum feedrates, mm / sec
M204 S1250 T1250 ; sets acceleration (S) and retract acceleration (R), mm/sec^2
M205 X8.00 Y8.00 Z0.40 E4.50 ; sets the jerk limits, mm/sec
M205 S0 T0 ; sets the minimum extruding and travel feed rate, mm/sec
;TYPE:Custom
M862.3 P "MK3S" ; printer model check
M862.1 P0.25 ; nozzle diameter check
M115 U3.13.0 ; tell printer latest fw version
G90 ; use absolute coordinates
M83 ; extruder relative mode
M104 S215 ; set extruder temp
M140 S60 ; set bed temp
M190 S60 ; wait for bed temp
M109 S215 ; wait for extruder temp
G28 W ; home all without mesh bed level
G80 ; mesh bed leveling
G1 Z0.2 F720
G1 Y-3 F1000 ; go outside print area
G92 E0
G1 X60 E8 F700 ; intro line
G1 X100 E12.5 F700 ; intro line
G92 E0
M221 S95

; Don't change E value below. Excessive value can damage the printer.
M907 E430 ; set extruder motor current
G21 ; set units to millimeters
G90 ; use absolute coordinates
M83 ; use relative distances for extrusion
M900 K0.05 ; Filament gcode LA 1.5
M900 K30 ; Filament gcode LA 1.0
M107
;LAYER_CHANGE
;Z:0.2
;HEIGHT:0.2
;BEFORE_LAYER_CHANGE
G92 E0.0
;0.2


G1 E-.8 F2100
G1 Z.15 F720
G1 Z.2
;AFTER_LAYER_CHANGE
;0.2
G1 Z.35
G1 X114.76 Y97.258 F10800
G1 Z.2 F720
G1 E.8 F2100
M204 S500
;TYPE:Skirt/Brim
;WIDTH:0.3
G1 F1200
G1 X115.967 Y95.948 E.03808
G1 X117.69 Y94.455 E.04873
G1 X118.439 Y94.013 E.01859
G1 X122.253 Y92.512 E.08762
G1 X123.058 Y92.328 E.01765
G1 X125.054 Y92.212 E.04274
G1 X127.287 Y92.374 E.04786
G1 X128.13 Y92.592 E.01861
G1 X132 Y94.278 E.09024
G1 X132.761 Y94.771 E.01938
G1 X134.052 Y95.967 E.03762
G1 X135.545 Y97.69 E.04873
G1 X135.987 Y98.439 E.01859
G1 X137.526 Y102.353 E.0899
G1 X137.715 Y103.23 E.01918
M73 Q1 S18
G1 X137.788 Y105.013 E.03815
G1 X137.626 Y107.287 E.04873
G1 X137.408 Y108.13 E.01861
M73 P1 R18
G1 X135.719 Y112.006 E.09038
G1 X135.223 Y112.77 E.01947
G1 X134.033 Y114.052 E.03739
G1 X132.31 Y115.545 E.04873
G1 X131.561 Y115.987 E.01859
G1 X127.647 Y117.526 E.0899
G1 X126.77 Y117.715 E.01918
G1 X124.987 Y117.788 E.03815
G1 X122.713 Y117.626 E.04873
G1 X121.87 Y117.408 E.01861
G1 X118.008 Y115.725 E.09005
G1 X117.251 Y115.236 E.01926
G1 X115.948 Y114.033 E.03791
G1 X114.454 Y112.31 E.04875
G1 X113.988 Y111.495 E.02007
G1 X112.454 Y107.194 E.09761
G1 X112.25 Y106.035 E.02516
G1 X112.212 Y104.987 E.02242
G1 X112.374 Y102.713 E.04873
G1 X112.592 Y101.87 E.01861
G1 X114.272 Y98.012 E.08995
G1 X114.739 Y97.289 E.0184
M204 S1000
G1 X114.95 Y97.43 F10800
M204 S500
G1 F1200
G1 X116.148 Y96.131 E.03777
G1 X117.853 Y94.653 E.04823
G1 X118.533 Y94.252 E.01688
G1 X122.347 Y92.752 E.08761
G1 X123.078 Y92.584 E.01603
G1 X125.054 Y92.469 E.04231
G1 X127.263 Y92.63 E.04735
G1 X128.027 Y92.828 E.01687
G1 X131.898 Y94.514 E.09026
G1 X132.588 Y94.961 E.01757
G1 X133.869 Y96.148 E.03733
G1 X135.347 Y97.853 E.04823
G1 X135.748 Y98.534 E.01689
G1 X137.287 Y102.447 E.08988
G1 X137.458 Y103.243 E.0174
G1 X137.531 Y105.012 E.03785
G1 X137.37 Y107.263 E.04824
G1 X137.172 Y108.028 E.01689
G1 X135.483 Y111.904 E.09038
G1 X135.033 Y112.596 E.01764
G1 X133.852 Y113.869 E.03712
G1 X132.147 Y115.347 E.04823
G1 X131.466 Y115.748 E.01689
G1 X127.553 Y117.287 E.08988
G1 X126.757 Y117.458 E.0174
G1 X124.988 Y117.531 E.03785
G1 X122.737 Y117.37 E.04824
G1 X121.973 Y117.172 E.01687
G1 X118.11 Y115.49 E.09006
G1 X117.424 Y115.046 E.01747
G1 X116.131 Y113.852 E.03762
G1 X114.653 Y112.147 E.04823
G1 X114.23 Y111.407 E.01822
G1 X112.706 Y107.143 E.0968
G1 X112.506 Y106.021 E.02436
G1 X112.469 Y104.988 E.0221
G1 X112.63 Y102.737 E.04824
G1 X112.828 Y101.973 E.01687
G1 X114.508 Y98.115 E.08995
G1 X114.93 Y97.462 E.01662
M204 S1000
G1 X115.141 Y97.603 F10800
M204 S500
G1 F1200
G1 X116.329 Y96.314 E.03747
G1 X118.017 Y94.851 E.04775
G1 X118.627 Y94.492 E.01513
G1 X122.442 Y92.991 E.08764
G1 X123.097 Y92.841 E.01436
G1 X125.054 Y92.727 E.0419
G1 X127.238 Y92.886 E.04681
G1 X127.925 Y93.063 E.01517
G1 X131.795 Y94.75 E.09024
G1 X132.414 Y95.151 E.01577
G1 X133.686 Y96.329 E.03706
G1 X135.149 Y98.017 E.04775
G1 X135.509 Y98.628 E.01516
G1 X137.047 Y102.541 E.08987
G1 X137.201 Y103.256 E.01563
G1 X137.274 Y105.01 E.03753
G1 X137.114 Y107.238 E.04775
G1 X136.937 Y107.925 E.01517
G1 X135.247 Y111.801 E.09039
G1 X134.844 Y112.423 E.01584
G1 X133.671 Y113.686 E.03685
G1 X131.983 Y115.149 E.04775
G1 X131.372 Y115.509 E.01516
G1 X127.459 Y117.047 E.08987
G1 X126.744 Y117.201 E.01563
G1 X124.99 Y117.274 E.03753
G1 X122.762 Y117.114 E.04775
G1 X122.075 Y116.937 E.01517
G1 X118.213 Y115.254 E.09005
G1 X117.597 Y114.855 E.01569
G1 X116.314 Y113.671 E.03732
G1 X114.851 Y111.983 E.04775
G1 X114.471 Y111.319 E.01635
G1 X112.958 Y107.092 E.09597
G1 X112.763 Y106.008 E.02354
G1 X112.726 Y104.99 E.02178
G1 X112.886 Y102.762 E.04775
G1 X113.063 Y102.075 E.01517
G1 X114.744 Y98.217 E.08996
G1 X115.12 Y97.634 E.01483
M204 S1000
;WIPE_START
G1 F8640
G1 X116.329 Y96.314 E-.41331
G1 X117.595 Y95.217 E-.38669
;WIPE_END
G1 Z.35 F720
G1 X117.227 Y99.138 F10800
G1 Z.2 F720
G1 E.8 F2100
M204 S500
G1 F1200
G1 X118.141 Y98.045 E.03046
G1 X118.878 Y97.37 E.02136
G1 X120.455 Y96.59 E.03761
G1 X121.582 Y96.409 E.0244
G1 X122.416 Y95.82 E.02183
G1 X123.593 Y95.371 E.02693
G1 X124.903 Y95.231 E.02816
G1 X126.046 Y95.271 E.02445
M73 Q2 S18
G1 X127.925 Y95.948 E.04269
G1 X128.578 Y96.498 E.01825
G1 X129.652 Y96.678 E.02328
G1 X130.861 Y97.227 E.02838
G1 X131.955 Y98.141 E.03047
M73 P2 R18
G1 X132.63 Y98.878 E.02136
G1 X133.41 Y100.455 E.03761
G1 X133.591 Y101.583 E.02442
G1 X134.19 Y102.435 E.02226
G1 X134.641 Y103.649 E.02768
G1 X134.768 Y105.067 E.03043
G1 X134.724 Y106.066 E.02138
G1 X134.161 Y107.732 E.03759
G1 X133.491 Y108.658 E.02443
G1 X133.312 Y109.685 E.02228
G1 X132.771 Y110.865 E.02775
G1 X131.848 Y111.966 E.03071
G1 X131.119 Y112.632 E.02111
G1 X129.544 Y113.41 E.03755
G1 X128.417 Y113.591 E.0244
G1 X127.565 Y114.19 E.02226
G1 X126.351 Y114.641 E.02768
G1 X124.933 Y114.768 E.03043
G1 X123.934 Y114.724 E.02138
G1 X122.268 Y114.161 E.03759
G1 X121.342 Y113.491 E.02443
G1 X120.315 Y113.312 E.02228
G1 X119.135 Y112.771 E.02775
G1 X118.034 Y111.848 E.03071
G1 X117.368 Y111.119 E.02111
G1 X116.59 Y109.544 E.03755
G1 X116.409 Y108.417 E.0244
G1 X115.81 Y107.565 E.02226
G1 X115.359 Y106.351 E.02768
G1 X115.232 Y104.933 E.03043
G1 X115.276 Y103.934 E.02138
G1 X115.839 Y102.268 E.03759
G1 X116.509 Y101.342 E.02443
G1 X116.688 Y100.315 E.02228
G1 X117.212 Y99.172 E.02688
M204 S1000
G1 X117.445 Y99.279 F10800
M204 S500
G1 F1200
G1 X118.332 Y98.217 E.02958
G1 X119.038 Y97.573 E.02043
G1 X120.55 Y96.83 E.03601
G1 X121.682 Y96.654 E.02449
G1 X122.524 Y96.055 E.02209
G1 X123.669 Y95.618 E.0262
G1 X124.921 Y95.487 E.02691
G1 X126.017 Y95.527 E.02344
G1 X127.815 Y96.182 E.04091
G1 X128.465 Y96.74 E.01831
G1 X129.562 Y96.919 E.02376
G1 X130.739 Y97.454 E.02764
G1 X131.783 Y98.332 E.02916
G1 X132.427 Y99.038 E.02043
G1 X133.17 Y100.55 E.03601
G1 X133.346 Y101.682 E.02449
G1 X133.955 Y102.54 E.02249
G1 X134.394 Y103.722 E.02695
G1 X134.511 Y105.081 E.02916
G1 X134.468 Y106.036 E.02044
G1 X133.924 Y107.63 E.036
G1 X133.247 Y108.555 E.0245
G1 X133.071 Y109.594 E.02253
G1 X132.545 Y110.742 E.02699
G1 X131.658 Y111.793 E.0294
G1 X130.959 Y112.43 E.02022
G1 X129.449 Y113.17 E.03595
G1 X128.318 Y113.346 E.02447
G1 X127.46 Y113.955 E.02249
G1 X126.278 Y114.394 E.02695
G1 X124.919 Y114.511 E.02916
G1 X123.964 Y114.468 E.02044
G1 X122.37 Y113.924 E.036
G1 X121.445 Y113.247 E.0245
G1 X120.406 Y113.071 E.02253
G1 X119.258 Y112.545 E.02699
G1 X118.207 Y111.658 E.0294
G1 X117.57 Y110.959 E.02022
G1 X116.83 Y109.449 E.03595
G1 X116.654 Y108.318 E.02447
G1 X116.045 Y107.46 E.02249
G1 X115.606 Y106.278 E.02695
G1 X115.489 Y104.919 E.02916
G1 X115.532 Y103.964 E.02044
G1 X116.076 Y102.37 E.036
G1 X116.753 Y101.445 E.0245
G1 X116.929 Y100.407 E.02251
G1 X117.43 Y99.313 E.02572
M204 S1000
G1 X117.663 Y99.42 F10800
M204 S500
G1 F1200
G1 X118.522 Y98.39 E.02867
G1 X119.197 Y97.775 E.01952
G1 X120.644 Y97.07 E.03441
G1 X121.781 Y96.899 E.02458
G1 X122.631 Y96.289 E.02236
G1 X123.744 Y95.864 E.02547
G1 X124.937 Y95.744 E.02563
G1 X125.987 Y95.783 E.02246
G1 X127.703 Y96.414 E.03908
G1 X128.378 Y97.006 E.01919
G1 X128.558 Y97.004 E.00385
G1 X129.47 Y97.16 E.01978
G1 X130.616 Y97.68 E.0269
G1 X131.61 Y98.522 E.02785
G1 X132.225 Y99.197 E.01952
G1 X132.93 Y100.644 E.03441
G1 X133.101 Y101.782 E.0246
G1 X133.72 Y102.646 E.02272
G1 X134.147 Y103.795 E.0262
G1 X134.255 Y105.093 E.02784
G1 X134.212 Y106.005 E.01952
G1 X133.687 Y107.527 E.03442
G1 X133.004 Y108.452 E.02458
G1 X132.83 Y109.503 E.02277
G1 X132.318 Y110.619 E.02625
G1 X131.467 Y111.62 E.02809
G1 X130.8 Y112.227 E.01928
G1 X129.355 Y112.93 E.03435
G1 X128.218 Y113.101 E.02458
G1 X127.354 Y113.72 E.02272
G1 X126.205 Y114.147 E.0262
G1 X124.907 Y114.255 E.02784
G1 X123.995 Y114.212 E.01952
G1 X122.473 Y113.687 E.03442
G1 X121.548 Y113.004 E.02458
G1 X120.497 Y112.83 E.02277
G1 X119.381 Y112.318 E.02625
G1 X118.38 Y111.467 E.02809
G1 X117.773 Y110.8 E.01928
G1 X117.07 Y109.355 E.03435
G1 X116.899 Y108.218 E.02458
G1 X116.28 Y107.354 E.02272
G1 X115.853 Y106.205 E.0262
G1 X115.745 Y104.907 E.02784
G1 X115.788 Y103.995 E.01952
G1 X116.313 Y102.473 E.03442
G1 X116.996 Y101.548 E.02458
G1 X117.17 Y100.498 E.02275
G1 X117.648 Y99.454 E.02454
M204 S1000
G1 X117.882 Y99.561 F10800
M204 S500
G1 F1200
G1 X117.906 Y99.507 E.00126
G1 X118.712 Y98.563 E.02653
G1 X119.356 Y97.978 E.0186
G1 X120.739 Y97.31 E.03283
G1 X121.699 Y97.161 E.02077
G1 X121.886 Y97.173 E.00401
G1 X122.016 Y97.038 E.00401
G1 X122.738 Y96.523 E.01896
G1 X123.82 Y96.11 E.02476
G1 X124.953 Y96.001 E.02433
G1 X125.956 Y96.039 E.02146
G1 X127.59 Y96.647 E.03727
G1 X128.283 Y97.267 E.01988
G1 X128.528 Y97.26 E.00524
G1 X129.41 Y97.41 E.01912
G1 X130.493 Y97.906 E.02546
G1 X131.437 Y98.712 E.02653
G1 X132.022 Y99.356 E.0186
G1 X132.69 Y100.739 E.03283
G1 X132.839 Y101.699 E.02077
G1 X132.827 Y101.887 E.00403
G1 X132.966 Y102.02 E.00411
G1 X133.485 Y102.751 E.01916
G1 X133.9 Y103.868 E.02547
G1 X133.998 Y105.105 E.02653
G1 X133.956 Y105.974 E.0186
G1 X133.451 Y107.425 E.03284
G1 X132.877 Y108.208 E.02075
G1 X132.736 Y108.333 E.00403
G1 X132.74 Y108.525 E.00411
G1 X132.59 Y109.41 E.01919
G1 X132.092 Y110.495 E.02552
G1 X131.277 Y111.447 E.02679
G1 X130.641 Y112.024 E.01836
G1 X129.26 Y112.691 E.03278
G1 X128.301 Y112.839 E.02074
G1 X128.113 Y112.827 E.00403
G1 X127.98 Y112.966 E.00411
G1 X127.249 Y113.485 E.01916
G1 X126.132 Y113.9 E.02547
G1 X124.895 Y113.998 E.02653
G1 X124.026 Y113.956 E.0186
G1 X122.575 Y113.451 E.03284
G1 X121.792 Y112.877 E.02075
G1 X121.667 Y112.736 E.00403
G1 X121.475 Y112.74 E.00411
G1 X120.59 Y112.59 E.01919
G1 X119.505 Y112.092 E.02552
G1 X118.553 Y111.277 E.02679
G1 X117.976 Y110.641 E.01836
G1 X117.309 Y109.26 E.03278
G1 X117.161 Y108.301 E.02074
G1 X117.173 Y108.113 E.00403
G1 X117.034 Y107.98 E.00411
G1 X116.515 Y107.249 E.01916
G1 X116.1 Y106.132 E.02547
G1 X116.002 Y104.895 E.02653
G1 X116.044 Y104.026 E.0186
G1 X116.549 Y102.575 E.03284
G1 X117.123 Y101.792 E.02075
M73 Q3 S18
G1 X117.264 Y101.667 E.00403
G1 X117.26 Y101.475 E.00411
G1 X117.41 Y100.59 E.01919
G1 X117.866 Y99.595 E.0234
M204 S1000
G1 X118.099 Y99.703 F10800
M204 S500
G1 F1200
G1 X118.132 Y99.632 E.00167
G1 X118.902 Y98.737 E.02524
G1 X119.515 Y98.181 E.01769
G1 X120.832 Y97.55 E.03122
M73 P3 R18
G1 X121.719 Y97.418 E.01917
G1 X121.99 Y97.443 E.00582
G1 X122.177 Y97.238 E.00593
G1 X122.873 Y96.742 E.01827
G1 X123.894 Y96.357 E.02333
G1 X124.968 Y96.258 E.02306
G1 X125.925 Y96.295 E.02047
G1 X127.476 Y96.878 E.03542
G1 X128.188 Y97.529 E.02062
G1 X128.5 Y97.516 E.00668
G1 X129.35 Y97.661 E.01843
G1 X130.368 Y98.132 E.02398
G1 X131.263 Y98.902 E.02524
G1 X131.819 Y99.515 E.01769
G1 X132.45 Y100.832 E.03122
G1 X132.582 Y101.719 E.01917
G1 X132.557 Y101.99 E.00582
G1 X132.765 Y102.18 E.00602
G1 X133.265 Y102.886 E.01849
G1 X133.652 Y103.939 E.02398
G1 X133.741 Y105.116 E.02523
G1 X133.7 Y105.943 E.0177
G1 X133.215 Y107.321 E.03123
G1 X132.681 Y108.041 E.01916
G1 X132.472 Y108.216 E.00583
G1 X132.484 Y108.497 E.00601
G1 X132.339 Y109.35 E.0185
G1 X131.867 Y110.37 E.02403
G1 X131.088 Y111.273 E.02549
G1 X130.483 Y111.821 E.01745
G1 X129.167 Y112.45 E.03118
G1 X128.28 Y112.582 E.01917
G1 X128.01 Y112.557 E.0058
G1 X127.82 Y112.765 E.00602
G1 X127.114 Y113.265 E.01849
G1 X126.061 Y113.652 E.02398
G1 X124.884 Y113.741 E.02523
G1 X124.057 Y113.7 E.0177
G1 X122.679 Y113.215 E.03123
G1 X121.959 Y112.681 E.01916
G1 X121.784 Y112.472 E.00583
G1 X121.503 Y112.484 E.00601
G1 X120.65 Y112.339 E.0185
G1 X119.63 Y111.867 E.02403
G1 X118.727 Y111.088 E.02549
G1 X118.179 Y110.483 E.01745
G1 X117.55 Y109.167 E.03118
G1 X117.418 Y108.28 E.01917
G1 X117.443 Y108.01 E.0058
G1 X117.235 Y107.82 E.00602
G1 X116.735 Y107.114 E.01849
G1 X116.348 Y106.061 E.02398
G1 X116.259 Y104.884 E.02523
G1 X116.3 Y104.057 E.0177
G1 X116.785 Y102.679 E.03123
G1 X117.319 Y101.959 E.01916
G1 X117.528 Y101.784 E.00583
G1 X117.516 Y101.503 E.00601
G1 X117.661 Y100.65 E.0185
G1 X118.083 Y99.737 E.0215
M204 S1000
G1 X118.316 Y99.846 F10800
M204 S500
G1 F1200
G1 X118.357 Y99.758 E.00208
G1 X119.091 Y98.912 E.02394
G1 X119.673 Y98.385 E.01678
G1 X120.924 Y97.791 E.0296
G1 X121.738 Y97.675 E.01758
G1 X122.094 Y97.714 E.00766
G1 X122.338 Y97.439 E.00786
G1 X123.008 Y96.962 E.01758
G1 X123.967 Y96.604 E.02188
G1 X124.982 Y96.514 E.02178
G1 X125.893 Y96.551 E.01949
G1 X127.36 Y97.109 E.03355
G1 X128.093 Y97.793 E.02143
G1 X128.471 Y97.772 E.00809
G1 X129.29 Y97.911 E.01776
G1 X130.243 Y98.357 E.02249
G1 X131.088 Y99.091 E.02393
G1 X131.615 Y99.673 E.01678
G1 X132.209 Y100.924 E.0296
G1 X132.325 Y101.738 E.01758
G1 X132.286 Y102.094 E.00766
G1 X132.564 Y102.342 E.00796
G1 X133.045 Y103.02 E.01777
G1 X133.404 Y104.009 E.02249
G1 X133.484 Y105.126 E.02394
G1 X133.445 Y105.911 E.0168
G1 X132.98 Y107.216 E.02961
G1 X132.486 Y107.873 E.01757
G1 X132.207 Y108.097 E.00765
G1 X132.228 Y108.469 E.00796
G1 X132.089 Y109.29 E.0178
G1 X131.642 Y110.245 E.02254
G1 X130.9 Y111.098 E.02417
G1 X130.325 Y111.617 E.01656
G1 X129.075 Y112.21 E.02957
G1 X128.262 Y112.325 E.01755
G1 X127.906 Y112.286 E.00766
G1 X127.658 Y112.564 E.00796
G1 X126.98 Y113.045 E.01777
G1 X125.991 Y113.404 E.02249
G1 X124.874 Y113.484 E.02394
G1 X124.089 Y113.445 E.0168
G1 X122.784 Y112.98 E.02961
G1 X122.127 Y112.486 E.01757
G1 X121.903 Y112.207 E.00765
G1 X121.531 Y112.228 E.00796
G1 X120.71 Y112.089 E.0178
G1 X119.755 Y111.642 E.02254
G1 X118.902 Y110.9 E.02417
G1 X118.383 Y110.325 E.01656
G1 X117.79 Y109.075 E.02957
G1 X117.675 Y108.262 E.01755
G1 X117.714 Y107.906 E.00766
G1 X117.436 Y107.658 E.00796
G1 X116.955 Y106.98 E.01777
G1 X116.596 Y105.991 E.02249
G1 X116.516 Y104.874 E.02394
G1 X116.555 Y104.089 E.0168
G1 X117.02 Y102.784 E.02961
G1 X117.514 Y102.127 E.01757
G1 X117.793 Y101.903 E.00765
G1 X117.772 Y101.531 E.00796
G1 X117.911 Y100.711 E.01778
G1 X118.3 Y99.88 E.01961
M204 S1000
G1 X118.531 Y99.989 F10800
M204 S500
G1 F1200
G1 X118.581 Y99.884 E.00249
G1 X119.279 Y99.087 E.02265
G1 X119.831 Y98.588 E.01591
G1 X120.98 Y98.042 E.02719
G1 X121.757 Y97.932 E.01677
G1 X122.198 Y97.987 E.0095
G1 X122.501 Y97.639 E.00986
G1 X123.143 Y97.181 E.01686
G1 X124.039 Y96.852 E.0204
G1 X124.996 Y96.771 E.02053
G1 X125.861 Y96.807 E.01851
G1 X127.243 Y97.339 E.03166
G1 X127.997 Y98.057 E.02226
G1 X128.444 Y98.028 E.00958
G1 X129.229 Y98.162 E.01702
G1 X130.116 Y98.581 E.02097
G1 X130.913 Y99.279 E.02265
G1 X131.412 Y99.831 E.01591
G1 X131.958 Y100.98 E.02719
G1 X132.068 Y101.757 E.01677
G1 X132.013 Y102.198 E.0095
G1 X132.364 Y102.504 E.00995
G1 X132.825 Y103.154 E.01703
G1 X133.156 Y104.079 E.021
