; generated by PrusaSlicer 2.6.1+win64 on 2023-09-11 at 13:52:17 UTC


;
;
; 

; external perimeters extrusion width = 0.45mm
; perimeters extrusion width = 0.45mm
; infill extrusion width = 0.45mm
; solid infill extrusion width = 0.45mm
; top infill extrusion width = 0.40mm
; first layer extrusion width = 0.42mm

M73 P0 R45
M73 Q0 S45
M201 X1000 Y1000 Z200 E5000 ; sets maximum accelerations, mm/sec^2
M203 X200 Y200 Z12 E120 ; sets maximum feedrates, mm / sec
M204 S1250 T1250 ; sets acceleration (S) and retract acceleration (R), mm/sec^2
M205 X8.00 Y8.00 Z0.40 E4.50 ; sets the jerk limits, mm/sec
M205 S0 T0 ; sets the minimum extruding and travel feed rate, mm/sec
;TYPE:Custom
M862.3 P "MK3" ; printer model check
M862.1 P0.4 ; nozzle diameter check
M115 U3.13.0 ; tell printer latest fw version
G90 ; use absolute coordinates
M83 ; extruder relative mode
M104 S215 ; set extruder temp
M140 S60 ; set bed temp
M190 S60 ; wait for bed temp
M109 S215 ; wait for extruder temp
G28 W ; home all without mesh bed level
G80 ; mesh bed leveling

G1 Z0.2 F720
G1 Y-3 F1000 ; go outside print area
G92 E0
G1 X60 E9 F1000 ; intro line
G1 X100 E12.5 F1000 ; intro line

G92 E0
M221 S95

; Don't change E values below. Excessive value can damage the printer.
M907 E430 ; set extruder motor current
G21 ; set units to millimeters
G90 ; use absolute coordinates
M83 ; use relative distances for extrusion
M900 K0.05 ; Filament gcode LA 1.5
M900 K30 ; Filament gcode LA 1.0
M107
;LAYER_CHANGE
;Z:0.2
;HEIGHT:0.2
;BEFORE_LAYER_CHANGE
G92 E0.0
;0.2


G1 E-.8 F2100
G1 Z.4 F720
;AFTER_LAYER_CHANGE
;0.2
G1 X107.024 Y91.013 F10800
G1 Z.2 F720
G1 E.8 F2100
M204 S800
;TYPE:Skirt/Brim
;WIDTH:0.42
G1 F1200
G1 X108.687 Y89.106 E.07933
G1 X109.898 Y87.966 E.05215
G1 X113.766 Y85.187 E.14933
G1 X116.033 Y84.063 E.07934
G1 X117.407 Y83.527 E.04624
G1 X119.836 Y82.817 E.07935
G1 X122.467 Y82.365 E.0837
G1 X127.23 Y82.345 E.14934
G1 X128.88 Y82.557 E.05216
G1 X131.345 Y83.126 E.07932
G1 X132.813 Y83.608 E.04845
G1 X135.2 Y84.636 E.08149
G1 X136.533 Y85.373 E.04776
G1 X140.12 Y87.983 E.13909
G1 X141.233 Y89.024 E.04778
G1 X142.233 Y90.108 E.04624
G1 X143.857 Y92.226 E.08368
G1 X145.222 Y94.52 E.0837
G1 X145.867 Y95.901 E.04779
G1 X147.235 Y100.12 E.13906
G1 X147.523 Y101.616 E.04777
G1 X147.695 Y103.081 E.04625
G1 X147.768 Y105.61 E.07933
G1 X147.681 Y107.082 E.04623
G1 X147.52 Y108.408 E.04188
G1 X147.23 Y109.904 E.04778
G1 X145.857 Y114.122 E.13908
G1 X145.211 Y115.502 E.04778
G1 X144.489 Y116.787 E.04621
G1 X142.976 Y118.987 E.08372
G1 X141.313 Y120.894 E.07933
G1 X140.102 Y122.034 E.05215
G1 X136.234 Y124.813 E.14933
G1 X133.967 Y125.937 E.07934
G1 X131.455 Y126.842 E.08372
G1 X130.028 Y127.214 E.04624
G1 X127.533 Y127.635 E.07933
G1 X122.442 Y127.632 E.15962
G1 X119.948 Y127.209 E.07931
G1 X118.521 Y126.835 E.04625
G1 X116.139 Y125.982 E.07933
G1 X113.745 Y124.801 E.0837
G1 X109.628 Y121.806 E.15963
G1 X108.67 Y120.877 E.04184
G1 X107.009 Y118.967 E.07936
G1 X105.499 Y116.766 E.08369
G1 X104.256 Y114.404 E.08369
G1 X102.765 Y109.88 E.14935
G1 X102.477 Y108.384 E.04777
G1 X102.305 Y106.919 E.04625
G1 X102.232 Y104.39 E.07933
G1 X102.319 Y102.918 E.04623
G1 X102.48 Y101.592 E.04188
G1 X102.77 Y100.096 E.04778
G1 X104.143 Y95.878 E.13908
G1 X104.789 Y94.498 E.04778
G1 X105.625 Y93.036 E.05281
G1 X106.99 Y91.063 E.07522
M204 S1000
; printing object TrackWheelTop.stl id:0 copy 0
;WIPE_START
G1 F8640
G1 X108.687 Y89.106 E-.59811
G1 X109.324 Y88.507 E-.20189
;WIPE_END
G1 Z.6 F720
G1 X142.774 Y113.258 F10800
G1 Z.2 F720
G1 E.8 F2100
M204 S800
;TYPE:Perimeter
;WIDTH:0.419999
G1 F1200
G1 X142.374 Y114.098 E.02917
G1 X141.813 Y115.099 E.03598
G1 X141.457 Y115.653 E.02065
;WIDTH:0.457902
G1 X141.37 Y115.753 E.00457
;WIDTH:0.495805
G1 X141.283 Y115.853 E.00499
;WIDTH:0.533708
G1 X141.195 Y115.953 E.00544
;WIDTH:0.571611
G1 X140.799 Y116.502 E.02976
;WIDTH:0.571998
G1 X140.418 Y117.022 E.02836
;WIDTH:0.533999
G1 X140.35 Y117.136 E.00542
;WIDTH:0.495999
G1 X140.281 Y117.251 E.00505
;WIDTH:0.457999
G1 X140.213 Y117.365 E.00458
;WIDTH:0.419999
G1 X139.786 Y117.885 E.0211
G1 X139.007 Y118.728 E.03599
G1 X138.331 Y119.367 E.02917
G1 X138.127 Y119.249 E.00739
G1 X137.743 Y119.097 E.01295
G1 X137.327 Y119.006 E.01335
G1 X136.77 Y118.988 E.01747
G1 X136.253 Y119.084 E.01649
G1 X135.767 Y119.286 E.0165
G1 X135.329 Y119.589 E.0167
G1 X135.006 Y119.925 E.01461
G1 X134.731 Y120.345 E.01574
G1 X134.544 Y120.816 E.01589
G1 X134.455 Y121.31 E.01574
G1 X134.465 Y121.804 E.01549
G1 X134.527 Y122.137 E.01062
G1 X133.711 Y122.572 E.02899
G1 X132.852 Y122.967 E.02964
G1 X132.258 Y123.212 E.02015
;WIDTH:0.459017
G1 X132.072 Y123.263 E.00667
;WIDTH:0.498035
G1 X131.885 Y123.315 E.00735
;WIDTH:0.537052
G1 X131.699 Y123.367 E.00794
;WIDTH:0.546668
G1 X131.152 Y123.548 E.02413
;WIDTH:0.567946
G1 X130.585 Y123.72 E.02587
G1 X130.403 Y123.795 E.00859
;WIDTH:0.518631
G1 X130.221 Y123.871 E.0078
;WIDTH:0.469315
G1 X130.04 Y123.946 E.00695
;WIDTH:0.419999
G1 X129.388 Y124.115 E.02112
G1 X128.261 Y124.34 E.03603
G1 X127.337 Y124.468 E.02925
G1 X127.251 Y124.258 E.00712
G1 X127.025 Y123.897 E.01335
G1 X126.741 Y123.577 E.01341
G1 X126.355 Y123.276 E.01535
G1 X125.845 Y123.017 E.01793
G1 X125.314 Y122.886 E.01715
G1 X124.855 Y122.874 E.0144
G1 X124.323 Y122.956 E.01688
G1 X123.833 Y123.143 E.01644
G1 X123.418 Y123.41 E.01547
G1 X123.062 Y123.753 E.0155
G1 X122.78 Y124.158 E.01547
G1 X122.639 Y124.456 E.01034
G1 X121.716 Y124.336 E.02918
G1 X120.792 Y124.151 E.02955
G1 X120.166 Y123.998 E.02021
;WIDTH:0.45819
G1 X119.985 Y123.93 E.00668
;WIDTH:0.496381
G1 X119.804 Y123.862 E.00729
;WIDTH:0.534572
G1 X119.623 Y123.795 E.00789
;WIDTH:0.546665
G1 X119.075 Y123.621 E.02408
;WIDTH:0.567951
G1 X118.514 Y123.428 E.0259
G1 X118.323 Y123.382 E.00858
;WIDTH:0.518634
G1 X118.132 Y123.336 E.00777
;WIDTH:0.469317
G1 X117.941 Y123.29 E.00697
;WIDTH:0.419999
G1 X117.315 Y123.044 E.02109
G1 X116.273 Y122.564 E.03597
G1 X115.456 Y122.118 E.02918
G1 X115.505 Y121.888 E.00737
G1 X115.531 Y121.476 E.01294
G1 X115.489 Y121.052 E.01336
G1 X115.351 Y120.565 E.01587
G1 X115.094 Y120.073 E.0174
G1 X114.741 Y119.654 E.01718
G1 X114.317 Y119.331 E.01671
G1 X113.898 Y119.129 E.01458
G1 X113.413 Y118.997 E.01576
G1 X112.908 Y118.964 E.01587
G1 X112.41 Y119.032 E.01576
G1 X111.944 Y119.194 E.01547
G1 X111.646 Y119.357 E.01065
G1 X110.98 Y118.714 E.02903
G1 X110.339 Y118.02 E.02962
G1 X109.923 Y117.531 E.02013
;WIDTH:0.459014
G1 X109.816 Y117.369 E.00672
;WIDTH:0.498029
G1 X109.709 Y117.208 E.00732
;WIDTH:0.537043
G1 X109.602 Y117.047 E.00794
;WIDTH:0.545965
G1 X109.262 Y116.581 E.02413
;WIDTH:0.566348
G1 X108.923 Y116.094 E.02583
G1 X108.795 Y115.945 E.00855
;WIDTH:0.517565
G1 X108.667 Y115.796 E.00775
;WIDTH:0.468782
G1 X108.539 Y115.647 E.00696
;WIDTH:0.419999
G1 X108.176 Y115.081 E.02108
G1 X107.615 Y114.077 E.03606
G1 X107.209 Y113.241 E.02914
G1 X107.352 Y113.122 E.00583
G1 X107.665 Y112.756 E.0151
G1 X107.899 Y112.339 E.01499
G1 X108.063 Y111.859 E.0159
G1 X108.128 Y111.35 E.01609
G1 X108.085 Y110.843 E.01595
G1 X107.964 Y110.406 E.01422
G1 X107.714 Y109.905 E.01756
G1 X107.384 Y109.496 E.01648
G1 X106.905 Y109.123 E.01904
G1 X106.408 Y108.893 E.01717
G1 X105.757 Y108.763 E.02081
G1 X105.596 Y107.854 E.02894
G1 X105.486 Y106.916 E.02961
G1 X105.437 Y106.275 E.02016
;WIDTH:0.459014
G1 X105.445 Y106.082 E.00668
;WIDTH:0.498029
G1 X105.453 Y105.888 E.00735
;WIDTH:0.537044
G1 X105.462 Y105.695 E.00794
;WIDTH:0.546664
G1 X105.459 Y105.119 E.02413
;WIDTH:0.567952
G1 X105.47 Y104.526 E.02589
G1 X105.455 Y104.33 E.00858
;WIDTH:0.518635
G1 X105.44 Y104.134 E.00778
;WIDTH:0.469317
G1 X105.424 Y103.939 E.00694
;WIDTH:0.419999
G1 X105.464 Y103.267 E.02111
G1 X105.599 Y102.125 E.03606
G1 X105.763 Y101.207 E.02924
G1 X105.99 Y101.19 E.00714
G1 X106.402 Y101.086 E.01332
G1 X106.844 Y100.89 E.01516
G1 X107.25 Y100.601 E.01563
G1 X107.617 Y100.221 E.01656
G1 X107.893 Y99.772 E.01653
G1 X108.046 Y99.339 E.0144
G1 X108.132 Y98.807 E.0169
G1 X108.106 Y98.284 E.01642
G1 X107.98 Y97.807 E.01547
G1 X107.764 Y97.362 E.01551
G1 X107.466 Y96.969 E.01546
G1 X107.226 Y96.742 E.01036
G1 X107.626 Y95.902 E.02917
G1 X108.187 Y94.901 E.03598
G1 X108.542 Y94.347 E.02063
;WIDTH:0.459079
G1 X108.621 Y94.262 E.00402
;WIDTH:0.498158
G1 X108.699 Y94.176 E.00439
;WIDTH:0.537238
G1 X108.777 Y94.09 E.00477
;WIDTH:0.576317
G1 X108.855 Y94.004 E.00515
G1 X109.146 Y93.575 E.02299
;WIDTH:0.568465
G1 X109.484 Y93.131 E.02438
G1 X109.585 Y92.965 E.00849
;WIDTH:0.518977
G1 X109.686 Y92.8 E.00766
;WIDTH:0.469488
G1 X109.787 Y92.635 E.00686
;WIDTH:0.419999
G1 X110.214 Y92.115 E.0211
G1 X110.995 Y91.27 E.03608
G1 X111.664 Y90.626 E.02912
G1 X111.822 Y90.725 E.00585
G1 X112.268 Y90.91 E.01514
G1 X112.689 Y90.996 E.01347
G1 X113.23 Y91.012 E.01697
G1 X113.747 Y90.916 E.01649
G1 X114.233 Y90.715 E.01649
G1 X114.653 Y90.428 E.01595
G1 X115.007 Y90.061 E.01599
G1 X115.28 Y89.635 E.01586
G1 X115.467 Y89.153 E.01621
G1 X115.548 Y88.649 E.01601
G1 X115.531 Y88.152 E.01559
G1 X115.469 Y87.865 E.00921
G1 X116.289 Y87.428 E.02913
G1 X117.18 Y87.018 E.03075
G1 X117.744 Y86.788 E.0191
;WIDTH:0.459017
G1 X117.929 Y86.736 E.00665
;WIDTH:0.498035
G1 X118.115 Y86.684 E.00731
;WIDTH:0.537053
G1 X118.301 Y86.633 E.00792
;WIDTH:0.546673
G1 X118.848 Y86.452 E.02413
;WIDTH:0.564039
G1 X119.375 Y86.291 E.02388
G1 X119.566 Y86.213 E.00894
;WIDTH:0.516026
G1 X119.758 Y86.135 E.00815
;WIDTH:0.468013
G1 X119.949 Y86.057 E.00729
;WIDTH:0.419999
G1 X120.612 Y85.885 E.02148
G1 X121.737 Y85.661 E.03597
G1 X122.66 Y85.542 E.02918
G1 X122.755 Y85.757 E.00737
G1 X122.977 Y86.105 E.01294
G1 X123.259 Y86.423 E.01333
G1 X123.645 Y86.724 E.01535
G1 X124.155 Y86.983 E.01793
G1 X124.686 Y87.114 E.01715
G1 X125.145 Y87.126 E.0144
G1 X125.677 Y87.044 E.01688
G1 X126.167 Y86.857 E.01644
G1 X126.582 Y86.59 E.01547
G1 X126.938 Y86.247 E.0155
G1 X127.22 Y85.842 E.01547
G1 X127.361 Y85.544 E.01034
G1 X128.284 Y85.664 E.02918
G1 X129.176 Y85.843 E.02853
G1 X129.865 Y86.009 E.02222
;WIDTH:0.45589
G1 X130.037 Y86.073 E.0063
;WIDTH:0.491781
G1 X130.21 Y86.136 E.00687
;WIDTH:0.527671
G1 X130.382 Y86.2 E.0074
;WIDTH:0.546664
G1 X130.925 Y86.379 E.02395
;WIDTH:0.567946
G1 X131.485 Y86.572 E.02586
G1 X131.664 Y86.613 E.00802
;WIDTH:0.518631
G1 X131.843 Y86.655 E.00727
;WIDTH:0.469315
G1 X132.021 Y86.696 E.00648
;WIDTH:0.419999
G1 X132.685 Y86.956 E.02236
G1 X133.727 Y87.436 E.03597
G1 X134.544 Y87.882 E.02918
G1 X134.495 Y88.112 E.00737
G1 X134.469 Y88.524 E.01294
G1 X134.511 Y88.948 E.01336
G1 X134.649 Y89.435 E.01587
G1 X134.906 Y89.927 E.0174
G1 X135.259 Y90.346 E.01718
G1 X135.683 Y90.669 E.01671
G1 X136.133 Y90.885 E.01565
G1 X136.591 Y91.004 E.01484
G1 X137.092 Y91.036 E.01574
G1 X137.59 Y90.968 E.01576
G1 X138.056 Y90.806 E.01547
G1 X138.354 Y90.643 E.01065
G1 X139.02 Y91.286 E.02903
G1 X139.685 Y92.006 E.03073
G1 X140.079 Y92.471 E.01911
;WIDTH:0.45396
G1 X140.217 Y92.667 E.00819
;WIDTH:0.487921
G1 X140.355 Y92.863 E.00887
;WIDTH:0.521882
G1 X140.493 Y93.058 E.00951
;WIDTH:0.543525
G1 X140.802 Y93.502 E.02252
;WIDTH:0.571977
G1 X141.198 Y94.051 E.02978
;WIDTH:0.533983
G1 X141.285 Y94.152 E.00544
;WIDTH:0.495988
G1 X141.373 Y94.252 E.00502
;WIDTH:0.457994
G1 X141.461 Y94.353 E.00462
;WIDTH:0.419999
G1 X141.832 Y94.934 E.02161
G1 X142.385 Y95.923 E.03553
G1 X142.791 Y96.759 E.02914
G1 X142.648 Y96.878 E.00583
G1 X142.335 Y97.244 E.0151
G1 X142.126 Y97.613 E.0133
G1 X141.955 Y98.079 E.01556
G1 X141.874 Y98.629 E.01743
G1 X141.915 Y99.157 E.0166
G1 X142.038 Y99.599 E.01439
G1 X142.303 Y100.125 E.01847
G1 X142.619 Y100.507 E.01554
G1 X143.095 Y100.877 E.0189
G1 X143.592 Y101.107 E.01717
G1 X144.243 Y101.237 E.02081
G1 X144.404 Y102.146 E.02894
G1 X144.538 Y103.288 E.03605
G1 X144.576 Y103.945 E.02063
;WIDTH:0.458589
G1 X144.564 Y104.07 E.00434
;WIDTH:0.497179
G1 X144.552 Y104.195 E.00474
;WIDTH:0.535769
G1 X144.539 Y104.32 E.00515
;WIDTH:0.574358
G1 X144.527 Y104.446 E.00559
G1 X144.542 Y105.019 E.02533
;WIDTH:0.572001
G1 X144.54 Y105.663 E.02833
;WIDTH:0.534001
G1 X144.552 Y105.796 E.00545
;WIDTH:0.496
G1 X144.564 Y105.929 E.00503
;WIDTH:0.458
G1 X144.576 Y106.062 E.00461
;WIDTH:0.419999
G1 X144.536 Y106.733 E.02108
G1 X144.401 Y107.875 E.03606
G1 X144.237 Y108.793 E.02924
G1 X144.01 Y108.81 E.00714
G1 X143.598 Y108.914 E.01332
G1 X143.086 Y109.145 E.01761
G1 X142.76 Y109.391 E.01281
G1 X142.383 Y109.779 E.01696
G1 X142.107 Y110.228 E.01653
G1 X141.942 Y110.698 E.01562
G1 X141.867 Y111.202 E.01598
G1 X141.894 Y111.716 E.01614
G1 X142.02 Y112.193 E.01547
G1 X142.236 Y112.638 E.01551
G1 X142.534 Y113.031 E.01546
G1 X142.73 Y113.217 E.00847
M204 S1000
G1 X143.181 Y113.117 F10800
M204 S800
;TYPE:External perimeter
G1 F1200
G1 X143.217 Y113.204 E.00295
G1 X142.709 Y114.272 E.03708
G1 X142.136 Y115.293 E.03671
G1 X141.503 Y116.28 E.03676
G1 X140.814 Y117.227 E.03672
G1 X140.07 Y118.133 E.03676
G1 X139.276 Y118.993 E.0367
G1 X138.385 Y119.81 E.0379
G1 X137.938 Y119.575 E.01583
G1 X137.612 Y119.451 E.01094
G1 X137.267 Y119.378 E.01106
G1 X136.783 Y119.365 E.01518
G1 X136.339 Y119.451 E.01418
G1 X135.922 Y119.629 E.01422
G1 X135.55 Y119.894 E.01432
G1 X135.285 Y120.179 E.0122
G1 X135.059 Y120.532 E.01314
G1 X134.897 Y120.95 E.01406
G1 X134.828 Y121.368 E.01328
G1 X134.841 Y121.788 E.01318
G1 X134.944 Y122.283 E.01585
G1 X134.886 Y122.373 E.00336
G1 X133.878 Y122.91 E.03581
G1 X132.813 Y123.4 E.03676
G1 X131.722 Y123.826 E.03672
G1 X130.607 Y124.187 E.03675
G1 X129.473 Y124.483 E.03675
G1 X128.323 Y124.712 E.03677
G1 X127.218 Y124.865 E.03498
G1 X127.104 Y124.835 E.0037
G1 X126.902 Y124.401 E.01501
G1 X126.71 Y124.105 E.01106
G1 X126.473 Y123.842 E.0111
G1 X126.148 Y123.591 E.01288
G1 X125.699 Y123.365 E.01576
G1 X125.238 Y123.255 E.01486
G1 X124.855 Y123.251 E.01201
G1 X124.399 Y123.325 E.01448
G1 X123.979 Y123.491 E.01416
G1 X123.629 Y123.723 E.01317
G1 X123.33 Y124.018 E.01317
G1 X123.094 Y124.366 E.01318
G1 X122.898 Y124.8 E.01493
G1 X122.827 Y124.861 E.00293
G1 X121.654 Y124.708 E.03709
G1 X120.506 Y124.478 E.03671
G1 X119.312 Y124.162 E.03873
G1 X118.258 Y123.819 E.03475
G1 X117.167 Y123.391 E.03675
G1 X116.103 Y122.901 E.03673
G1 X115.052 Y122.307 E.03785
G1 X115.136 Y121.809 E.01583
G1 X115.154 Y121.46 E.01096
G1 X115.117 Y121.109 E.01107
G1 X114.997 Y120.693 E.01358
G1 X114.771 Y120.268 E.01509
G1 X114.493 Y119.942 E.01343
G1 X114.095 Y119.636 E.01574
G1 X113.742 Y119.472 E.0122
G1 X113.337 Y119.366 E.01313
G1 X112.889 Y119.341 E.01407
G1 X112.47 Y119.405 E.01329
G1 X112.075 Y119.548 E.01317
G1 X111.636 Y119.798 E.01584
G1 X111.532 Y119.771 E.00337
G1 X110.71 Y118.978 E.03581
G1 X109.915 Y118.117 E.03674
G1 X109.173 Y117.21 E.03674
G1 X108.45 Y116.208 E.03874
G1 X107.853 Y115.274 E.03476
G1 X107.28 Y114.252 E.03674
G1 X106.8 Y113.263 E.03447
G1 X106.777 Y113.128 E.00429
G1 X107.111 Y112.832 E.01399
G1 X107.373 Y112.517 E.01285
G1 X107.566 Y112.163 E.01264
G1 X107.701 Y111.755 E.01347
G1 X107.752 Y111.319 E.01376
G1 X107.711 Y110.889 E.01354
G1 X107.615 Y110.552 E.01099
G1 X107.386 Y110.091 E.01614
G1 X107.099 Y109.743 E.01414
G1 X106.77 Y109.482 E.01317
G1 X106.361 Y109.275 E.01437
G1 X105.955 Y109.164 E.0132
G1 X105.489 Y109.116 E.01469
G1 X105.422 Y109.034 E.00332
G1 X105.223 Y107.909 E.03582
G1 X105.086 Y106.745 E.03675
G1 X105.018 Y105.575 E.03675
G1 X105.019 Y104.403 E.03675
G1 X105.088 Y103.233 E.03675
G1 X105.226 Y102.069 E.03675
G1 X105.422 Y100.971 E.03497
G1 X105.485 Y100.871 E.00371
G1 X105.961 Y100.814 E.01503
G1 X106.301 Y100.723 E.01104
G1 X106.674 Y100.554 E.01284
G1 X107.014 Y100.307 E.01318
G1 X107.332 Y99.974 E.01444
G1 X107.565 Y99.585 E.01422
G1 X107.668 Y99.282 E.01003
G1 X107.757 Y98.765 E.01645
G1 X107.73 Y98.315 E.01413
G1 X107.618 Y97.911 E.01314
G1 X107.428 Y97.535 E.01321
G1 X107.17 Y97.203 E.01318
G1 X106.819 Y96.883 E.01489
G1 X106.783 Y96.796 E.00295
G1 X107.291 Y95.728 E.03708
G1 X107.864 Y94.707 E.03671
G1 X108.497 Y93.72 E.03676
G1 X109.186 Y92.773 E.03672
G1 X109.93 Y91.867 E.03676
G1 X110.725 Y91.006 E.03674
G1 X111.53 Y90.232 E.03501
G1 X111.639 Y90.189 E.00367
