; generated by PrusaSlicer 2.6.1+win64 on 2023-09-11 at 14:21:06 UTC


;
;
; 

; external perimeters extrusion width = 0.45mm
; perimeters extrusion width = 0.45mm
; infill extrusion width = 0.45mm
; solid infill extrusion width = 0.45mm
; top infill extrusion width = 0.40mm
; first layer extrusion width = 0.42mm

M73 P0 R33
M73 Q0 S33
M201 X1000 Y1000 Z200 E5000 ; sets maximum accelerations, mm/sec^2
M203 X200 Y200 Z12 E120 ; sets maximum feedrates, mm / sec
M204 S1250 T1250 ; sets acceleration (S) and retract acceleration (R), mm/sec^2
M205 X8.00 Y8.00 Z0.40 E4.50 ; sets the jerk limits, mm/sec
M205 S0 T0 ; sets the minimum extruding and travel feed rate, mm/sec
;TYPE:Custom
M862.3 P "MK3S" ; printer model check
M862.1 P0.4 ; nozzle diameter check
M115 U3.13.0 ; tell printer latest fw version
G90 ; use absolute coordinates
M83 ; extruder relative mode
M104 S215 ; set extruder temp
M140 S60 ; set bed temp
M190 S60 ; wait for bed temp
M109 S215 ; wait for extruder temp
G28 W ; home all without mesh bed level
G80 ; mesh bed leveling

G1 Z0.2 F720
G1 Y-3 F1000 ; go outside print area
G92 E0
G1 X60 E9 F1000 ; intro line
G1 X100 E12.5 F1000 ; intro line

G92 E0
M221 S95

; Don't change E values below. Excessive value can damage the printer.
M907 E430 ; set extruder motor current
G21 ; set units to millimeters
G90 ; use absolute coordinates
M83 ; use relative distances for extrusion
M900 K0.05 ; Filament gcode LA 1.5
M900 K30 ; Filament gcode LA 1.0
M107
;LAYER_CHANGE
;Z:0.2
;HEIGHT:0.2
;BEFORE_LAYER_CHANGE
G92 E0.0
;0.2


G1 E-.8 F2100
G1 Z.4 F720
;AFTER_LAYER_CHANGE
;0.2
G1 X107.009 Y91.033 F10800
G1 Z.2 F720
G1 E.8 F2100
M204 S800
;TYPE:Skirt/Brim
;WIDTH:0.42
G1 F1200
G1 X108.67 Y89.123 E.07936
G1 X109.88 Y87.983 E.05212
G1 X113.745 Y85.199 E.14935
G1 X116.139 Y84.018 E.0837
G1 X118.521 Y83.165 E.07933
G1 X119.948 Y82.791 E.04625
G1 X122.442 Y82.368 E.07931
G1 X127.533 Y82.365 E.15962
G1 X130.164 Y82.817 E.0837
G1 X132.593 Y83.527 E.07935
G1 X133.967 Y84.063 E.04624
G1 X136.234 Y85.187 E.07934
G1 X140.354 Y88.177 E.15961
G1 X141.313 Y89.106 E.04186
G1 X142.976 Y91.013 E.07933
G1 X144.489 Y93.213 E.08372
G1 X145.734 Y95.574 E.08369
G1 X147.23 Y100.096 E.14934
G1 X147.52 Y101.592 E.04778
G1 X147.693 Y103.056 E.04622
G1 X147.769 Y105.586 E.07936
G1 X147.683 Y107.058 E.04623
G1 X147.523 Y108.384 E.04188
G1 X147.235 Y109.88 E.04777
G1 X145.867 Y114.099 E.13906
G1 X145.222 Y115.48 E.04779
G1 X144.501 Y116.766 E.04623
G1 X142.991 Y118.967 E.08369
G1 X141.33 Y120.877 E.07936
G1 X140.12 Y122.017 E.05212
G1 X136.255 Y124.801 E.14935
G1 X133.989 Y125.927 E.07934
G1 X131.479 Y126.835 E.08369
G1 X130.052 Y127.209 E.04625
G1 X127.558 Y127.632 E.07931
G1 X122.467 Y127.635 E.15962
G1 X119.972 Y127.214 E.07933
G1 X117.407 Y126.473 E.08371
G1 X116.033 Y125.937 E.04624
G1 X113.766 Y124.813 E.07934
G1 X109.646 Y121.823 E.15961
G1 X107.875 Y120.016 E.07933
G1 X107.024 Y118.987 E.04187
G1 X105.511 Y116.787 E.08372
G1 X104.266 Y114.426 E.08369
G1 X102.77 Y109.904 E.14934
G1 X102.48 Y108.408 E.04778
G1 X102.307 Y106.944 E.04622
G1 X102.231 Y104.414 E.07936
G1 X102.317 Y102.942 E.04623
G1 X102.477 Y101.616 E.04188
G1 X102.765 Y100.12 E.04777
G1 X104.133 Y95.901 E.13906
G1 X104.778 Y94.52 E.04779
G1 X105.536 Y93.175 E.04841
G1 X106.975 Y91.082 E.07964
M204 S1000
; printing object TrackWheelBottom.stl id:0 copy 0
;WIPE_START
G1 F8640
G1 X108.67 Y89.123 E-.59815
G1 X109.306 Y88.524 E-.20185
;WIPE_END
G1 Z.6 F720
G1 X111.669 Y119.367 F10800
G1 Z.2 F720
G1 E.8 F2100
M204 S800
;TYPE:Perimeter
;WIDTH:0.419999
G1 F1200
G1 X110.993 Y118.728 E.02917
G1 X110.214 Y117.885 E.03599
G1 X109.787 Y117.365 E.0211
;WIDTH:0.458
G1 X109.719 Y117.251 E.00458
;WIDTH:0.496
G1 X109.65 Y117.136 E.00505
;WIDTH:0.534
G1 X109.582 Y117.022 E.00542
;WIDTH:0.572
G1 X109.201 Y116.502 E.02836
;WIDTH:0.574361
G1 X108.876 Y116.029 E.02536
G1 X108.793 Y115.935 E.00554
;WIDTH:0.535771
G1 X108.709 Y115.841 E.00517
;WIDTH:0.49718
G1 X108.626 Y115.747 E.00474
;WIDTH:0.45859
G1 X108.542 Y115.653 E.00436
;WIDTH:0.419999
G1 X108.187 Y115.099 E.02063
G1 X107.626 Y114.098 E.03598
G1 X107.226 Y113.258 E.02917
G1 X107.401 Y113.1 E.00739
G1 X107.66 Y112.786 E.01276
G1 X107.904 Y112.365 E.01526
G1 X108.072 Y111.874 E.01627
G1 X108.135 Y111.365 E.01608
G1 X108.093 Y110.844 E.01639
G1 X107.961 Y110.4 E.01452
G1 X107.717 Y109.92 E.01688
G1 X107.411 Y109.54 E.0153
G1 X107.013 Y109.209 E.01623
G1 X106.571 Y108.972 E.01573
G1 X106.098 Y108.829 E.01549
G1 X105.762 Y108.786 E.01062
G1 X105.599 Y107.875 E.02902
G1 X105.487 Y106.924 E.03002
G1 X105.437 Y106.282 E.02019
;WIDTH:0.459121
G1 X105.447 Y106.107 E.00607
;WIDTH:0.498243
G1 X105.456 Y105.932 E.00663
;WIDTH:0.537365
G1 X105.465 Y105.758 E.00716
;WIDTH:0.576486
G1 X105.459 Y105.083 E.02995
;WIDTH:0.568028
G1 X105.47 Y104.524 E.02441
G1 X105.454 Y104.343 E.00793
;WIDTH:0.518685
G1 X105.438 Y104.163 E.00715
;WIDTH:0.469342
G1 X105.422 Y103.982 E.00644
;WIDTH:0.419999
G1 X105.462 Y103.288 E.0218
G1 X105.596 Y102.146 E.03605
G1 X105.758 Y101.231 E.02914
G1 X105.944 Y101.218 E.00585
G1 X106.408 Y101.107 E.01496
G1 X106.801 Y100.928 E.01354
G1 X107.213 Y100.651 E.01557
G1 X107.599 Y100.255 E.01734
G1 X107.887 Y99.79 E.01715
G1 X108.067 Y99.276 E.01708
G1 X108.132 Y98.744 E.0168
G1 X108.078 Y98.194 E.01733
G1 X107.917 Y97.695 E.01644
G1 X107.665 Y97.244 E.0162
G1 X107.211 Y96.753 E.02097
G1 X107.614 Y95.923 E.02893
G1 X108.082 Y95.087 E.03004
G1 X108.42 Y94.538 E.02021
;WIDTH:0.45907
G1 X108.54 Y94.387 E.00667
;WIDTH:0.498141
G1 X108.661 Y94.235 E.00735
;WIDTH:0.537212
G1 X108.781 Y94.083 E.00796
;WIDTH:0.546906
G1 X109.118 Y93.616 E.02413
;WIDTH:0.56743
G1 X109.473 Y93.143 E.02579
G1 X109.569 Y92.985 E.00806
;WIDTH:0.518287
G1 X109.664 Y92.827 E.00729
;WIDTH:0.469143
G1 X109.759 Y92.669 E.00653
;WIDTH:0.419999
G1 X110.2 Y92.131 E.02181
G1 X110.98 Y91.286 E.03606
G1 X111.651 Y90.639 E.02923
G1 X111.844 Y90.758 E.00711
G1 X112.235 Y90.914 E.0132
G1 X112.661 Y91.008 E.01368
G1 X113.15 Y91.024 E.01534
G1 X113.711 Y90.933 E.01782
G1 X114.219 Y90.726 E.0172
G1 X114.655 Y90.422 E.01667
G1 X114.98 Y90.083 E.01472
G1 X115.263 Y89.647 E.0163
G1 X115.442 Y89.187 E.01548
G1 X115.527 Y88.7 E.0155
G1 X115.517 Y88.207 E.01546
G1 X115.456 Y87.882 E.01037
G1 X116.273 Y87.436 E.02918
G1 X117.171 Y87.022 E.031
G1 X117.74 Y86.789 E.01928
;WIDTH:0.459121
G1 X117.908 Y86.745 E.00601
;WIDTH:0.498243
G1 X118.076 Y86.7 E.00658
;WIDTH:0.537365
G1 X118.244 Y86.655 E.00715
;WIDTH:0.576487
G1 X118.882 Y86.441 E.02986
;WIDTH:0.564559
G1 X119.38 Y86.289 E.02258
G1 X119.567 Y86.212 E.00877
;WIDTH:0.516373
G1 X119.754 Y86.136 E.00795
;WIDTH:0.468186
G1 X119.941 Y86.06 E.00714
;WIDTH:0.419999
G1 X120.591 Y85.889 E.02107
G1 X121.716 Y85.664 E.03597
G1 X122.639 Y85.544 E.02918
G1 X122.734 Y85.759 E.00737
G1 X122.954 Y86.103 E.0128
G1 X123.242 Y86.428 E.01362
G1 X123.68 Y86.767 E.01737
G1 X124.158 Y86.994 E.01659
G1 X124.667 Y87.115 E.0164
G1 X125.13 Y87.126 E.01452
G1 X125.661 Y87.043 E.01685
G1 X126.128 Y86.864 E.01568
G1 X126.555 Y86.593 E.01586
G1 X126.917 Y86.245 E.01574
G1 X127.199 Y85.84 E.01547
G1 X127.344 Y85.533 E.01065
G1 X128.261 Y85.66 E.02903
G1 X129.388 Y85.885 E.03603
G1 X129.874 Y86.011 E.01574
;WIDTH:0.459121
G1 X130.025 Y86.071 E.00562
;WIDTH:0.498243
G1 X130.177 Y86.131 E.00619
;WIDTH:0.537365
G1 X130.328 Y86.19 E.00667
;WIDTH:0.576486
G1 X130.959 Y86.39 E.02937
;WIDTH:0.568037
G1 X131.488 Y86.573 E.02444
G1 X131.665 Y86.613 E.00792
;WIDTH:0.518691
G1 X131.841 Y86.654 E.00715
;WIDTH:0.469345
G1 X132.018 Y86.694 E.00643
;WIDTH:0.419999
G1 X132.666 Y86.948 E.02182
G1 X133.711 Y87.428 E.03606
G1 X134.533 Y87.866 E.0292
G1 X134.48 Y88.087 E.00713
G1 X134.452 Y88.507 E.0132
G1 X134.502 Y88.993 E.01532
G1 X134.654 Y89.471 E.01573
G1 X134.903 Y89.937 E.01657
G1 X135.244 Y90.335 E.01643
G1 X135.668 Y90.657 E.01669
G1 X136.117 Y90.873 E.01562
G1 X136.593 Y90.995 E.01541
G1 X137.086 Y91.023 E.01548
G1 X137.575 Y90.954 E.01548
G1 X138.041 Y90.792 E.01547
G1 X138.331 Y90.633 E.01037
G1 X139.007 Y91.272 E.02917
G1 X139.679 Y91.999 E.03104
G1 X140.076 Y92.468 E.01927
;WIDTH:0.466059
G1 X140.28 Y92.753 E.01233
;WIDTH:0.512118
G1 X140.484 Y93.039 E.01371
;WIDTH:0.543528
G1 X140.819 Y93.525 E.02457
;WIDTH:0.574373
G1 X141.124 Y93.971 E.02388
G1 X141.207 Y94.065 E.00554
;WIDTH:0.53578
G1 X141.291 Y94.159 E.00517
;WIDTH:0.497186
G1 X141.374 Y94.253 E.00474
;WIDTH:0.458593
G1 X141.458 Y94.347 E.00436
;WIDTH:0.419999
G1 X141.813 Y94.901 E.02063
G1 X142.374 Y95.902 E.03598
G1 X142.774 Y96.742 E.02917
G1 X142.599 Y96.9 E.00739
G1 X142.34 Y97.214 E.01276
G1 X142.12 Y97.588 E.0136
G1 X141.946 Y98.064 E.01589
G1 X141.867 Y98.611 E.01733
G1 X141.907 Y99.156 E.01713
G1 X142.039 Y99.6 E.01452
G1 X142.283 Y100.08 E.01688
G1 X142.597 Y100.469 E.01567
G1 X142.987 Y100.791 E.01586
G1 X143.429 Y101.028 E.01573
G1 X143.902 Y101.171 E.01549
G1 X144.238 Y101.214 E.01062
G1 X144.401 Y102.125 E.02902
G1 X144.536 Y103.267 E.03606
G1 X144.576 Y103.938 E.02108
;WIDTH:0.459122
G1 X144.563 Y104.06 E.00425
;WIDTH:0.498245
G1 X144.551 Y104.182 E.00464
;WIDTH:0.537368
G1 X144.538 Y104.303 E.005
;WIDTH:0.57649
G1 X144.526 Y104.425 E.00544
G1 X144.542 Y105.014 E.02614
;WIDTH:0.574367
G1 X144.527 Y105.554 E.02387
G1 X144.539 Y105.68 E.00559
;WIDTH:0.535775
G1 X144.552 Y105.805 E.00515
;WIDTH:0.497183
G1 X144.564 Y105.93 E.00474
;WIDTH:0.458591
G1 X144.576 Y106.055 E.00434
;WIDTH:0.419999
G1 X144.538 Y106.712 E.02063
G1 X144.404 Y107.854 E.03605
G1 X144.242 Y108.769 E.02914
G1 X144.056 Y108.782 E.00585
G1 X143.592 Y108.893 E.01496
G1 X143.199 Y109.072 E.01354
G1 X142.749 Y109.379 E.01708
G1 X142.385 Y109.764 E.01661
G1 X142.113 Y110.21 E.01638
G1 X141.947 Y110.675 E.01548
G1 X141.872 Y111.198 E.01657
G1 X141.902 Y111.7 E.01577
G1 X142.071 Y112.282 E.019
G1 X142.335 Y112.756 E.01701
G1 X142.789 Y113.247 E.02097
M73 Q1 S33
G1 X142.386 Y114.077 E.02893
G1 X141.824 Y115.081 E.03608
G1 X141.461 Y115.647 E.02108
;WIDTH:0.459122
G1 X141.379 Y115.738 E.00424
;WIDTH:0.498244
G1 X141.298 Y115.829 E.00461
;WIDTH:0.537367
G1 X141.216 Y115.92 E.00504
;WIDTH:0.576489
G1 X141.135 Y116.011 E.00541
G1 X140.821 Y116.471 E.02471
;WIDTH:0.574359
G1 X140.472 Y116.926 E.02534
G1 X140.408 Y117.035 E.00559
;WIDTH:0.535769
G1 X140.345 Y117.143 E.00512
;WIDTH:0.497179
G1 X140.281 Y117.252 E.00477
;WIDTH:0.458589
G1 X140.217 Y117.36 E.00434
;WIDTH:0.419999
G1 X139.8 Y117.869 E.02063
G1 X139.02 Y118.714 E.03606
G1 X138.349 Y119.361 E.02923
M73 P1 R33
G1 X138.156 Y119.242 E.00711
G1 X137.765 Y119.086 E.0132
G1 X137.339 Y118.992 E.01368
G1 X136.85 Y118.976 E.01534
G1 X136.289 Y119.067 E.01782
G1 X135.781 Y119.274 E.0172
G1 X135.345 Y119.578 E.01667
G1 X135.02 Y119.917 E.01472
G1 X134.737 Y120.353 E.0163
G1 X134.558 Y120.813 E.01548
G1 X134.473 Y121.3 E.0155
G1 X134.483 Y121.793 E.01546
G1 X134.544 Y122.118 E.01037
G1 X133.727 Y122.564 E.02918
G1 X132.685 Y123.044 E.03597
G1 X132.059 Y123.29 E.02109
;WIDTH:0.457999
G1 X131.929 Y123.319 E.0046
;WIDTH:0.495998
G1 X131.799 Y123.349 E.00503
;WIDTH:0.533998
G1 X131.669 Y123.379 E.00545
;WIDTH:0.571997
G1 X131.057 Y123.58 E.02834
;WIDTH:0.560572
G1 X130.509 Y123.749 E.02468
G1 X130.355 Y123.814 E.00719
;WIDTH:0.513715
G1 X130.2 Y123.879 E.00658
;WIDTH:0.466857
G1 X130.046 Y123.944 E.00589
;WIDTH:0.419999
G1 X129.409 Y124.111 E.02065
G1 X128.284 Y124.336 E.03597
G1 X127.361 Y124.456 E.02918
G1 X127.266 Y124.241 E.00737
G1 X127.046 Y123.897 E.0128
G1 X126.722 Y123.535 E.01523
G1 X126.306 Y123.224 E.01629
G1 X125.842 Y123.006 E.01607
G1 X125.333 Y122.885 E.0164
G1 X124.87 Y122.874 E.01452
G1 X124.339 Y122.957 E.01685
G1 X123.872 Y123.136 E.01568
G1 X123.445 Y123.407 E.01586
G1 X123.083 Y123.755 E.01574
G1 X122.801 Y124.16 E.01547
G1 X122.656 Y124.467 E.01065
G1 X121.739 Y124.34 E.02903
G1 X120.612 Y124.115 E.03603
G1 X119.96 Y123.946 E.02112
;WIDTH:0.457999
G1 X119.838 Y123.893 E.00459
;WIDTH:0.495999
G1 X119.715 Y123.841 E.00503
;WIDTH:0.533999
G1 X119.592 Y123.788 E.00547
;WIDTH:0.571999
G1 X118.979 Y123.592 E.02831
;WIDTH:0.574359
G1 X118.439 Y123.4 E.02533
G1 X118.316 Y123.373 E.00556
;WIDTH:0.535769
G1 X118.193 Y123.346 E.00516
;WIDTH:0.497179
G1 X118.07 Y123.319 E.00476
;WIDTH:0.458589
G1 X117.947 Y123.292 E.00435
;WIDTH:0.419999
G1 X117.334 Y123.052 E.02064
G1 X116.289 Y122.572 E.03606
G1 X115.467 Y122.134 E.0292
G1 X115.52 Y121.913 E.00713
G1 X115.548 Y121.493 E.0132
G1 X115.506 Y121.059 E.01367
G1 X115.351 Y120.527 E.01737
G1 X115.097 Y120.062 E.01661
G1 X114.757 Y119.666 E.01636
G1 X114.332 Y119.343 E.01674
G1 X113.91 Y119.139 E.0147
G1 X113.407 Y119.005 E.01632
G1 X112.914 Y118.977 E.01548
G1 X112.425 Y119.046 E.01548
G1 X111.959 Y119.208 E.01547
G1 X111.722 Y119.338 E.00848
M204 S1000
G1 X111.678 Y119.797 F10800
M204 S800
;TYPE:External perimeter
G1 F1200
G1 X111.584 Y119.805 E.00296
G1 X110.724 Y118.993 E.03708
G1 X109.93 Y118.133 E.0367
G1 X109.186 Y117.227 E.03676
G1 X108.497 Y116.28 E.03672
G1 X107.864 Y115.293 E.03676
G1 X107.291 Y114.272 E.03671
G1 X106.788 Y113.174 E.03787
G1 X107.149 Y112.82 E.01585
G1 X107.365 Y112.552 E.01079
G1 X107.569 Y112.193 E.01295
G1 X107.709 Y111.77 E.01397
G1 X107.759 Y111.333 E.01379
G1 X107.718 Y110.886 E.01407
G1 X107.607 Y110.532 E.01163
G1 X107.389 Y110.107 E.01498
G1 X107.125 Y109.787 E.01301
G1 X106.777 Y109.503 E.01408
G1 X106.401 Y109.309 E.01327
G1 X105.997 Y109.193 E.01318
G1 X105.495 Y109.138 E.01583
G1 X105.427 Y109.055 E.00336
G1 X105.226 Y107.931 E.0358
G1 X105.088 Y106.767 E.03675
G1 X105.019 Y105.597 E.03675
G1 X105.018 Y104.425 E.03675
G1 X105.087 Y103.255 E.03675
G1 X105.223 Y102.091 E.03674
G1 X105.415 Y101.008 E.03449
G1 X105.475 Y100.885 E.00429
G1 X105.919 Y100.842 E.01399
G1 X106.312 Y100.742 E.01271
G1 X106.634 Y100.59 E.01116
G1 X106.981 Y100.353 E.01318
G1 X107.313 Y100.009 E.01499
G1 X107.541 Y99.635 E.01373
G1 X107.677 Y99.261 E.01248
G1 X107.754 Y98.757 E.01599
G1 X107.723 Y98.334 E.0133
G1 X107.61 Y97.929 E.01318
G1 X107.4 Y97.522 E.01436
G1 X107.136 Y97.193 E.01323
G1 X106.787 Y96.882 E.01466
G1 X106.781 Y96.776 E.00333
G1 X107.28 Y95.748 E.03583
G1 X107.853 Y94.726 E.03674
G1 X108.484 Y93.738 E.03676
G1 X109.173 Y92.79 E.03675
G1 X109.915 Y91.883 E.03674
G1 X110.71 Y91.022 E.03674
G1 X111.513 Y90.247 E.03499
G1 X111.623 Y90.204 E.0037
G1 X112.042 Y90.436 E.01502
G1 X112.366 Y90.561 E.01089
G1 X112.721 Y90.636 E.01138
G1 X113.131 Y90.647 E.01286
G1 X113.624 Y90.566 E.01566
G1 X114.062 Y90.383 E.01488
G1 X114.434 Y90.117 E.01434
G1 X114.701 Y89.829 E.01231
G1 X114.94 Y89.452 E.014
G1 X115.087 Y89.058 E.01319
G1 X115.155 Y88.643 E.01319
G1 X115.14 Y88.223 E.01318
G1 X115.044 Y87.757 E.01492
G1 X115.066 Y87.666 E.00294
G1 X116.103 Y87.099 E.03706
G1 X117.167 Y86.609 E.03673
G1 X118.258 Y86.181 E.03675
G1 X119.372 Y85.819 E.03673
G1 X120.506 Y85.522 E.03675
G1 X121.654 Y85.292 E.03671
G1 X122.854 Y85.153 E.03788
G1 X123.079 Y85.606 E.01586
G1 X123.268 Y85.894 E.0108
G1 X123.509 Y86.162 E.0113
G1 X123.891 Y86.454 E.01508
G1 X124.304 Y86.646 E.01428
G1 X124.742 Y86.745 E.01408
G1 X125.13 Y86.749 E.01217
G1 X125.585 Y86.673 E.01446
G1 X125.971 Y86.521 E.01301
G1 X126.348 Y86.278 E.01406
G1 X126.65 Y85.98 E.0133
G1 X126.885 Y85.632 E.01317
G1 X127.094 Y85.167 E.01598
G1 X127.229 Y85.137 E.00434
G1 X128.323 Y85.288 E.03463
G1 X129.473 Y85.517 E.03677
G1 X130.607 Y85.813 E.03675
G1 X131.722 Y86.174 E.03675
G1 X132.813 Y86.6 E.03672
G1 X133.878 Y87.09 E.03676
G1 X134.863 Y87.615 E.035
G1 X134.938 Y87.706 E.0037
G1 X134.847 Y88.176 E.01501
G1 X134.829 Y88.523 E.01089
G1 X134.875 Y88.935 E.013
G1 X135.006 Y89.337 E.01326
G1 X135.225 Y89.742 E.01444
G1 X135.522 Y90.08 E.01411
G1 X135.889 Y90.352 E.01432
G1 X136.273 Y90.53 E.01327
G1 X136.679 Y90.628 E.0131
G1 X137.098 Y90.646 E.01315
G1 X137.514 Y90.582 E.0132
G1 X137.909 Y90.438 E.01318
G1 X138.322 Y90.203 E.0149
G1 X138.416 Y90.195 E.00296
G1 X139.276 Y91.007 E.03708
G1 X140.07 Y91.867 E.0367
G1 X140.814 Y92.773 E.03676
G1 X141.503 Y93.72 E.03672
G1 X142.136 Y94.707 E.03676
G1 X142.709 Y95.728 E.03671
G1 X143.212 Y96.826 E.03787
G1 X142.851 Y97.18 E.01585
