; generated by PrusaSlicer 2.6.1+win64 on 2023-09-11 at 13:46:30 UTC


;
;

;
;

;
;
; 

; external perimeters extrusion width = 0.45mm
; perimeters extrusion width = 0.45mm
; infill extrusion width = 0.45mm
; solid infill extrusion width = 0.45mm
; top infill extrusion width = 0.40mm
; first layer extrusion width = 0.50mm

M73 P0 R35
M201 X2500 Y2500 Z200 E2500 ; sets maximum accelerations, mm/sec^2
M203 X200 Y200 Z40 E100 ; sets maximum feedrates, mm / sec
M204 P2000 R1200 T2000 ; sets acceleration (P, T) and retract acceleration (R), mm/sec^2
M205 X8.00 Y8.00 Z2.00 E10.00 ; sets the jerk limits, mm/sec
M205 S0 T0 ; sets the minimum extruding and travel feed rate, mm/sec
;TYPE:Custom
M17 ; enable steppers
M862.3 P "MK4" ; printer model check
M862.1 P0.4 ; nozzle diameter check
M555 X104.608 Y80.7197 W40.7831 H44.5606

G90 ; use absolute coordinates
M83 ; extruder relative mode

M140 S60 ; set bed temp

M104 S170 ; set extruder temp for bed leveling
M109 R170 ; wait for temp


M84 E ; turn off E motor

G28 ; home all without mesh bed level

G1 X42 Y-4 Z5 F4800

M302 S160 ; lower cold extrusion limit to 160C


G1 E-2 F2400 ; retraction


M84 E ; turn off E motor

G29 P9 X10 Y-4 W32 H4

M106 S100

G0 Z40 F10000

M190 S60 ; wait for bed temp

M107

;
; MBL
;
M84 E ; turn off E motor
G29 P1 ; invalidate mbl & probe print area
G29 P1 X0 Y0 W50 H20 C ; probe near purge place
G29 P3.2 ; interpolate mbl probes
G29 P3.13 ; extrapolate mbl outside probe area
G29 A ; activate mbl

; prepare for purge
M104 S215
G0 X0 Y-4 Z15 F4800 ; move away and ready for the purge
M109 S215

G92 E0
M569 S0 E ; set spreadcycle mode for extruder

;
; Extrude purge line
;
G92 E0 ; reset extruder position
G1 E2 F2400 ; deretraction after the initial one before nozzle cleaning
G0 E7 X15 Z0.2 F500 ; purge
G0 X25 E4 F500 ; purge
G0 X35 E4 F650 ; purge
G0 X45 E4 F800 ; purge
G0 X48 Z0.05 F8000 ; wipe, move close to the bed
G0 X51 Z0.2 F8000 ; wipe, move quickly away from the bed

G92 E0
M221 S100 ; set flow to 100%
G21 ; set units to millimeters
G90 ; use absolute coordinates
M83 ; use relative distances for extrusion
M900 K0.05 ; Filament gcode



M142 S36 ; set heatbreak target temp
M107
;LAYER_CHANGE
;Z:0.2
;HEIGHT:0.2
;BEFORE_LAYER_CHANGE
G92 E0.0
;0.2


G1 E-.8 F2100
G1 Z.2 F720
;AFTER_LAYER_CHANGE
;0.2
; printing object TrackWheelTop.stl id:0 copy 0
G1 Z.4
G1 X142.633 Y113.293 F12000
G1 Z.2 F720
G1 E.8 F1500
M204 P600
;TYPE:Perimeter
;WIDTH:0.499999
G1 F1200
G1 X142.269 Y114.04 E.03158
G1 X141.71 Y115.037 E.04344
G1 X141.075 Y116.03 E.0448
;WIDTH:0.491612
G1 X140.766 Y116.479 E.02034
;WIDTH:0.491998
G1 X140.454 Y116.884 E.01909
;WIDTH:0.499999
G1 X139.695 Y117.806 E.04539
G1 X138.92 Y118.645 E.04341
G1 X138.317 Y119.225 E.0318
G1 X138.203 Y119.155 E.00508
G1 X137.715 Y118.959 E.01999
G1 X137.215 Y118.866 E.01933
G1 X136.698 Y118.87 E.01965
G1 X136.126 Y118.994 E.02224
G1 X135.656 Y119.208 E.01963
G1 X135.208 Y119.532 E.02101
G1 X134.855 Y119.917 E.01985
G1 X134.58 Y120.386 E.02066
G1 X134.395 Y120.912 E.02119
G1 X134.332 Y121.498 E.0224
G1 X134.391 Y122.074 E.02201
G1 X133.657 Y122.465 E.03161
G1 X132.802 Y122.858 E.03576
G1 X131.677 Y123.311 E.04609
;WIDTH:0.497254
G1 X131.14 Y123.51 E.02163
;WIDTH:0.487946
G1 X130.572 Y123.682 E.02196
;WIDTH:0.499999
G1 X129.362 Y123.998 E.04753
G1 X128.241 Y124.221 E.04344
G1 X127.413 Y124.336 E.03177
G1 X127.299 Y124.094 E.01017
G1 X127.002 Y123.67 E.01967
G1 X126.621 Y123.307 E.02
G1 X126.194 Y123.034 E.01926
G1 X125.714 Y122.846 E.01959
G1 X125.2 Y122.754 E.01985
G1 X124.643 Y122.768 E.02118
G1 X124.138 Y122.885 E.0197
G1 X123.669 Y123.096 E.01955
G1 X123.248 Y123.396 E.01965
G1 X122.853 Y123.832 E.02236
G1 X122.562 Y124.333 E.02202
G1 X121.739 Y124.218 E.03158
G1 X120.816 Y124.033 E.03578
G1 X119.638 Y123.736 E.04617
;WIDTH:0.495815
G1 X119.088 Y123.583 E.0215
;WIDTH:0.487951
G1 X118.527 Y123.39 E.02195
;WIDTH:0.499999
G1 X117.362 Y122.934 E.04755
G1 X116.324 Y122.455 E.04345
G1 X115.587 Y122.061 E.03176
G1 X115.618 Y121.931 E.00508
G1 X115.654 Y121.407 E.01996
G1 X115.588 Y120.902 E.01936
G1 X115.423 Y120.411 E.01969
G1 X115.128 Y119.906 E.02223
G1 X114.779 Y119.523 E.01969
G1 X114.331 Y119.197 E.02106
G1 X113.859 Y118.982 E.01971
G1 X113.328 Y118.865 E.02067
G1 X112.721 Y118.86 E.02307
G1 X112.193 Y118.973 E.02052
G1 X111.664 Y119.208 E.022
G1 X111.065 Y118.63 E.03164
G1 X110.427 Y117.939 E.03574
G1 X109.648 Y117.008 E.04614
;WIDTH:0.497252
G1 X109.294 Y116.558 E.02163
;WIDTH:0.486346
G1 X108.956 Y116.071 E.02186
;WIDTH:0.499999
G1 X108.279 Y115.019 E.04755
G1 X107.721 Y114.022 E.04342
G1 X107.358 Y113.273 E.03163
G1 X107.521 Y113.121 E.00847
G1 X107.84 Y112.709 E.0198
G1 X108.087 Y112.208 E.02123
G1 X108.218 Y111.707 E.01968
G1 X108.247 Y111.184 E.01991
G1 X108.167 Y110.638 E.02097
G1 X107.991 Y110.151 E.01968
G1 X107.706 Y109.686 E.02073
G1 X107.338 Y109.295 E.02041
G1 X106.901 Y108.987 E.02032
G1 X106.438 Y108.777 E.01932
G1 X105.86 Y108.653 E.02247
G1 X105.715 Y107.837 E.0315
G1 X105.605 Y106.902 E.03578
G1 X105.522 Y105.692 E.0461
;WIDTH:0.497251
G1 X105.499 Y105.119 E.02166
;WIDTH:0.487952
G1 X105.51 Y104.526 E.02195
;WIDTH:0.499999
G1 X105.584 Y103.277 E.04755
G1 X105.718 Y102.142 E.04344
G1 X105.865 Y101.32 E.03174
G1 X105.999 Y101.309 E.00511
G1 X106.5 Y101.183 E.01963
G1 X106.968 Y100.962 E.01967
G1 X107.412 Y100.624 E.02121
G1 X107.807 Y100.165 E.02302
G1 X108.053 Y99.704 E.01986
G1 X108.212 Y99.17 E.02118
G1 X108.257 Y98.654 E.01969
G1 X108.201 Y98.142 E.01958
G1 X108.023 Y97.605 E.0215
G1 X107.753 Y97.138 E.0205
G1 X107.367 Y96.707 E.02199
G1 X107.731 Y95.96 E.03158
G1 X108.191 Y95.139 E.03577
G1 X108.889 Y94.026 E.04993
;WIDTH:0.496317
G1 X109.179 Y93.599 E.01946
;WIDTH:0.488465
G1 X109.516 Y93.154 E.02068
;WIDTH:0.499999
G1 X110.305 Y92.194 E.04723
G1 X111.08 Y91.354 E.04344
G1 X111.68 Y90.778 E.03161
G1 X111.875 Y90.886 E.00847
G1 X112.366 Y91.062 E.01982
G1 X112.918 Y91.143 E.0212
G1 X113.435 Y91.112 E.01968
G1 X113.932 Y90.982 E.01952
G1 X114.398 Y90.757 E.01967
G1 X114.851 Y90.404 E.02183
G1 X115.185 Y90.024 E.01923
G1 X115.44 Y89.578 E.01953
G1 X115.609 Y89.061 E.02067
G1 X115.672 Y88.514 E.02093
G1 X115.611 Y87.925 E.02251
G1 X116.343 Y87.535 E.03152
G1 X117.23 Y87.128 E.03709
G1 X118.323 Y86.689 E.04477
;WIDTH:0.497254
G1 X118.86 Y86.491 E.02162
;WIDTH:0.484038
G1 X119.387 Y86.329 E.02022
;WIDTH:0.499999
G1 X120.639 Y86.002 E.04918
G1 X121.759 Y85.779 E.0434
G1 X122.587 Y85.664 E.03177
G1 X122.701 Y85.906 E.01017
G1 X122.998 Y86.33 E.01967
G1 X123.379 Y86.693 E.02
G1 X123.806 Y86.966 E.01926
G1 X124.286 Y87.154 E.01959
G1 X124.8 Y87.246 E.01985
G1 X125.357 Y87.232 E.02118
G1 X125.862 Y87.115 E.0197
G1 X126.331 Y86.904 E.01955
G1 X126.787 Y86.569 E.02151
G1 X127.147 Y86.169 E.02045
G1 X127.438 Y85.667 E.02205
G1 X128.261 Y85.782 E.03158
G1 X129.152 Y85.96 E.03453
G1 X130.365 Y86.262 E.04751
;WIDTH:0.496073
G1 X130.912 Y86.417 E.02142
;WIDTH:0.487945
G1 X131.473 Y86.61 E.02195
;WIDTH:0.499999
G1 X132.638 Y87.066 E.04755
G1 X133.676 Y87.545 E.04345
G1 X134.413 Y87.939 E.03176
G1 X134.382 Y88.069 E.00508
G1 X134.347 Y88.585 E.01966
G1 X134.412 Y89.098 E.01965
G1 X134.577 Y89.589 E.01969
G1 X134.872 Y90.094 E.02223
G1 X135.221 Y90.477 E.01969
G1 X135.67 Y90.803 E.02109
G1 X136.146 Y91.019 E.01987
G1 X136.672 Y91.135 E.02047
G1 X137.23 Y91.147 E.02121
G1 X137.807 Y91.027 E.0224
G1 X138.336 Y90.792 E.022
G1 X138.935 Y91.37 E.03164
G1 X139.597 Y92.088 E.03712
G1 X140.442 Y93.096 E.04999
;WIDTH:0.489117
G1 X140.769 Y93.525 E.02001
;WIDTH:0.491976
G1 X141.078 Y93.974 E.02035
;WIDTH:0.499999
G1 X141.727 Y94.993 E.04592
G1 X142.279 Y95.978 E.04291
G1 X142.642 Y96.727 E.03163
G1 X142.479 Y96.879 E.00847
G1 X142.16 Y97.291 E.0198
G1 X141.913 Y97.792 E.02123
G1 X141.782 Y98.293 E.01968
G1 X141.753 Y98.816 E.01991
G1 X141.835 Y99.368 E.02121
G1 X142.009 Y99.849 E.01944
G1 X142.276 Y100.293 E.01969
G1 X142.622 Y100.674 E.01956
G1 X143.042 Y100.984 E.01984
G1 X143.562 Y101.223 E.02175
G1 X144.14 Y101.347 E.02247
G1 X144.285 Y102.163 E.0315
G1 X144.399 Y103.133 E.03712
G1 X144.487 Y104.446 E.05001
;WIDTH:0.494358
G1 X144.502 Y105.019 E.02152
;WIDTH:0.492001
G1 X144.488 Y105.53 E.01909
;WIDTH:0.499999
G1 X144.416 Y106.723 E.04542
G1 X144.282 Y107.858 E.04344
G1 X144.135 Y108.68 E.03174
G1 X144.001 Y108.691 E.00511
G1 X143.492 Y108.819 E.01995
G1 X143.032 Y109.038 E.01936
G1 X142.588 Y109.376 E.02121
G1 X142.193 Y109.835 E.02302
G1 X141.947 Y110.296 E.01986
G1 X141.788 Y110.83 E.02118
G1 X141.743 Y111.346 E.01969
G1 X141.799 Y111.858 E.01958
G1 X141.954 Y112.351 E.01964
G1 X142.247 Y112.862 E.02239
G1 X142.593 Y113.248 E.0197
M204 P1000
G1 X143.148 Y113.141 F12000
M204 P600
;TYPE:External perimeter
G1 F1200
G1 X143.178 Y113.219 E.00318
G1 X142.674 Y114.253 E.04372
G1 X142.102 Y115.272 E.04441
G1 X141.47 Y116.257 E.04448
G1 X140.782 Y117.203 E.04446
G1 X140.04 Y118.107 E.04445
G1 X139.246 Y118.966 E.04446
G1 X138.87 Y119.328 E.01984
G1 X138.366 Y119.774 E.02558
G1 X137.963 Y119.544 E.01764
G1 X137.628 Y119.414 E.01366
G1 X137.273 Y119.338 E.0138
G1 X136.782 Y119.325 E.01867
G1 X136.33 Y119.412 E.01749
G1 X135.906 Y119.592 E.01751
G1 X135.527 Y119.862 E.01769
G1 X135.255 Y120.152 E.01511
G1 X135.025 Y120.511 E.0162
G1 X134.859 Y120.936 E.01734
G1 X134.788 Y121.362 E.01641
G1 X134.802 Y121.79 E.01628
G1 X134.897 Y122.253 E.01796
G1 X134.875 Y122.334 E.00319
G1 X133.86 Y122.874 E.0437
G1 X132.798 Y123.363 E.04444
G1 X131.708 Y123.788 E.04446
G1 X130.596 Y124.149 E.04443
G1 X129.464 Y124.444 E.04446
G1 X128.317 Y124.672 E.04445
G1 X127.8 Y124.744 E.01984
G1 X127.129 Y124.809 E.02562
G1 X126.939 Y124.386 E.01762
G1 X126.744 Y124.083 E.01369
G1 X126.501 Y123.814 E.01378
G1 X126.17 Y123.558 E.0159
G1 X125.715 Y123.328 E.01938
G1 X125.246 Y123.216 E.01833
G1 X124.855 Y123.211 E.01486
G1 X124.391 Y123.286 E.01786
G1 X123.964 Y123.454 E.01744
G1 X123.607 Y123.689 E.01624
G1 X123.301 Y123.99 E.01631
G1 X123.061 Y124.344 E.01625
G1 X122.865 Y124.775 E.01799
G1 X122.801 Y124.828 E.00316
G1 X121.662 Y124.669 E.04371
G1 X120.515 Y124.439 E.04446
G1 X119.323 Y124.123 E.04687
G1 X118.271 Y123.781 E.04204
G1 X117.182 Y123.354 E.04446
G1 X116.12 Y122.865 E.04444
G1 X115.66 Y122.619 E.01983
G1 X115.079 Y122.277 E.02562
G1 X115.174 Y121.823 E.01763
G1 X115.194 Y121.464 E.01367
G1 X115.156 Y121.103 E.0138
G1 X115.034 Y120.68 E.01673
G1 X114.805 Y120.247 E.01862
G1 X114.523 Y119.915 E.01656
G1 X114.119 Y119.604 E.01938
G1 X113.759 Y119.436 E.0151
G1 X113.346 Y119.327 E.01623
G1 X112.891 Y119.301 E.01732
G1 X112.464 Y119.365 E.01641
G1 X112.061 Y119.51 E.01628
G1 X111.649 Y119.744 E.01801
G1 X111.566 Y119.748 E.00316
G1 X110.739 Y118.95 E.04368
G1 X109.946 Y118.09 E.04446
G1 X109.205 Y117.186 E.04443
G1 X108.483 Y116.185 E.04691
G1 X107.887 Y115.254 E.04201
G1 X107.316 Y114.233 E.04446
G1 X107.063 Y113.713 E.02198
G1 X106.818 Y113.145 E.02351
G1 X107.136 Y112.863 E.01615
G1 X107.404 Y112.542 E.01589
G1 X107.601 Y112.182 E.0156
G1 X107.739 Y111.766 E.01666
G1 X107.792 Y111.322 E.01699
G1 X107.75 Y110.884 E.01672
G1 X107.653 Y110.539 E.01362
G1 X107.421 Y110.071 E.01985
G1 X107.129 Y109.717 E.01744
G1 X106.795 Y109.45 E.01625
G1 X106.379 Y109.239 E.01773
G1 X105.965 Y109.125 E.01632
G1 X105.532 Y109.08 E.01655
G1 X105.463 Y109.036 E.00311
G1 X105.263 Y107.903 E.04373
G1 X105.126 Y106.742 E.04443
G1 X105.058 Y105.574 E.04447
G1 X105.059 Y104.404 E.04447
G1 X105.128 Y103.237 E.04443
G1 X105.266 Y102.075 E.04447
G1 X105.357 Y101.561 E.01984
G1 X105.503 Y100.904 E.02558
G1 X105.964 Y100.854 E.01762
G1 X106.312 Y100.761 E.01369
G1 X106.692 Y100.589 E.01585
G1 X107.039 Y100.338 E.01628
G1 X107.362 Y100 E.01777
G1 X107.6 Y99.605 E.01753
G1 X107.706 Y99.295 E.01245
G1 X107.797 Y98.77 E.02025
G1 X107.77 Y98.312 E.01744
G1 X107.656 Y97.899 E.01628
G1 X107.464 Y97.516 E.01628
G1 X107.202 Y97.178 E.01625
G1 X106.852 Y96.859 E.018
G1 X106.822 Y96.781 E.00318
G1 X107.326 Y95.747 E.04372
G1 X107.898 Y94.728 E.04441
G1 X108.53 Y93.743 E.04448
G1 X109.218 Y92.797 E.04446
G1 X109.96 Y91.893 E.04445
G1 X110.754 Y91.034 E.04446
G1 X111.17 Y90.634 E.02193
G1 X111.635 Y90.225 E.02354
G1 X112.002 Y90.44 E.01617
G1 X112.39 Y90.596 E.01589
G1 X112.746 Y90.664 E.01377
G1 X113.218 Y90.675 E.01794
G1 X113.67 Y90.588 E.01749
G1 X114.094 Y90.408 E.01751
G1 X114.445 Y90.162 E.01629
G1 X114.76 Y89.831 E.01737
G1 X114.991 Y89.462 E.01655
G1 X115.142 Y89.061 E.01629
G1 X115.214 Y88.601 E.0177
G1 X115.194 Y88.171 E.01636
G1 X115.104 Y87.746 E.01651
G1 X115.125 Y87.666 E.00314
G1 X116.14 Y87.126 E.0437
G1 X117.202 Y86.637 E.04444
G1 X118.292 Y86.212 E.04446
G1 X119.404 Y85.851 E.04443
G1 X120.536 Y85.556 E.04446
G1 X121.683 Y85.328 E.04445
G1 X122.2 Y85.256 E.01984
G1 X122.871 Y85.191 E.02562
G1 X123.061 Y85.614 E.01762
G1 X123.256 Y85.917 E.01369
G1 X123.499 Y86.186 E.01378
G1 X123.83 Y86.442 E.0159
G1 X124.285 Y86.672 E.01938
G1 X124.754 Y86.784 E.01833
G1 X125.145 Y86.789 E.01486
G1 X125.609 Y86.714 E.01786
G1 X126.036 Y86.546 E.01744
G1 X126.393 Y86.311 E.01624
G1 X126.699 Y86.01 E.01631
G1 X126.939 Y85.656 E.01625
G1 X127.135 Y85.225 E.01799
G1 X127.199 Y85.172 E.00316
G1 X128.338 Y85.331 E.04371
M73 P1 R35
G1 X129.485 Y85.561 E.04446
G1 X130.616 Y85.857 E.04443
G1 X131.729 Y86.219 E.04448
G1 X132.818 Y86.646 E.04446
G1 X133.88 Y87.135 E.04444
G1 X134.34 Y87.381 E.01983
G1 X134.921 Y87.723 E.02562
G1 X134.826 Y88.177 E.01763
G1 X134.806 Y88.536 E.01367
G1 X134.844 Y88.897 E.0138
G1 X134.966 Y89.32 E.01673
G1 X135.195 Y89.753 E.01862
G1 X135.508 Y90.119 E.0183
G1 X135.881 Y90.396 E.01766
G1 X136.272 Y90.578 E.01639
G1 X136.654 Y90.673 E.01496
G1 X137.109 Y90.699 E.01732
G1 X137.536 Y90.635 E.01641
G1 X137.939 Y90.49 E.01628
G1 X138.351 Y90.256 E.01801
G1 X138.434 Y90.252 E.00316
G1 X139.261 Y91.05 E.04368
G1 X140.054 Y91.91 E.04446
G1 X140.796 Y92.814 E.04445
G1 X141.471 Y93.745 E.04371
G1 X142.126 Y94.769 E.0462
G1 X142.684 Y95.767 E.04346
G1 X142.937 Y96.287 E.02198
G1 X143.182 Y96.855 E.02351
G1 X142.864 Y97.137 E.01615
G1 X142.596 Y97.458 E.01589
G1 X142.425 Y97.77 E.01352
G1 X142.279 Y98.172 E.01625
G1 X142.21 Y98.657 E.01862
G1 X142.25 Y99.116 E.01751
G1 X142.358 Y99.493 E.0149
G1 X142.596 Y99.958 E.01985
G1 X142.871 Y100.283 E.01618
G1 X143.205 Y100.55 E.01625
G1 X143.621 Y100.761 E.01773
G1 X144.035 Y100.875 E.01632
G1 X144.468 Y100.92 E.01655
G1 X144.537 Y100.964 E.00311
G1 X144.737 Y102.097 E.04373
G1 X144.874 Y103.258 E.04443
G1 X144.942 Y104.426 E.04447
G1 X144.941 Y105.596 E.04447
G1 X144.872 Y106.763 E.04443
G1 X144.734 Y107.925 E.04447
G1 X144.643 Y108.439 E.01984
G1 X144.497 Y109.096 E.02558
G1 X144.036 Y109.146 E.01762
G1 X143.688 Y109.239 E.01369
G1 X143.357 Y109.386 E.01376
G1 X142.971 Y109.654 E.01786
G1 X142.638 Y110 E.01825
G1 X142.4 Y110.395 E.01753
G1 X142.293 Y110.71 E.01264
G1 X142.202 Y111.239 E.0204
G1 X142.23 Y111.688 E.0171
G1 X142.344 Y112.101 E.01628
G1 X142.536 Y112.484 E.01628
G1 X142.798 Y112.822 E.01625
G1 X143.104 Y113.101 E.01574
M204 P1000
G1 X143.104 Y113.212 F12000
G1 E-.64 F2100
;WIPE_START
G1 F9600
G1 X143.178 Y113.219 E-.02894
G1 X142.902 Y113.786 E-.13106
;WIPE_END
G1 Z.4 F720
G1 X140.428 Y93.782 F12000
G1 Z.2 F720
G1 E.8 F1500
M204 P600
;TYPE:Perimeter
;WIDTH:0.484559
G1 F1200
G1 X140.47 Y93.834 E.00245
;WIDTH:0.497884
G1 X140.738 Y94.311 E.0207
;WIDTH:0.499999
G1 X140.866 Y94.803 E.01932
G1 X140.882 Y95.311 E.01932
G1 X140.786 Y95.808 E.01924
G1 X140.582 Y96.272 E.01926
G1 X140.281 Y96.683 E.01936
G1 X139.892 Y97.018 E.01951
G1 X139.408 Y97.273 E.02079
G1 X138.916 Y97.4 E.01931
G1 X138.862 Y97.403 E.00206
G1 X138.406 Y97.416 E.01734
G1 X137.91 Y97.32 E.0192
G1 X137.444 Y97.116 E.01933
G1 X137.034 Y96.814 E.01935
G1 X136.698 Y96.424 E.01956
G1 X136.444 Y95.94 E.02077
G1 X136.317 Y95.447 E.01935
G1 X136.301 Y94.939 E.01932
G1 X136.398 Y94.441 E.01928
G1 X136.602 Y93.975 E.01933
G1 X136.912 Y93.556 E.01981
G1 X137.293 Y93.231 E.01903
G1 X137.777 Y92.977 E.02077
G1 X138.267 Y92.85 E.01924
G1 X138.745 Y92.836 E.01817
G1 X139.248 Y92.923 E.0194
G1 X139.747 Y93.14 E.02068
